; generated by PrusaSlicer 2.5.0+win64 on 2023-04-10 at 20:50:50 UTC


;
;
; 

; external perimeters extrusion width = 0.45mm
; perimeters extrusion width = 0.45mm
; infill extrusion width = 0.45mm
; solid infill extrusion width = 0.45mm
; top infill extrusion width = 0.40mm
; support material extrusion width = 0.35mm
; first layer extrusion width = 0.42mm

M73 P0 R543
M73 Q0 S551
M201 X1000 Y1000 Z200 E5000 ; sets maximum accelerations, mm/sec^2
M203 X200 Y200 Z12 E120 ; sets maximum feedrates, mm / sec
M204 P1250 R1250 T1250 ; sets acceleration (P, T) and retract acceleration (R), mm/sec^2
M205 X8.00 Y8.00 Z0.40 E4.50 ; sets the jerk limits, mm/sec
M205 S0 T0 ; sets the minimum extruding and travel feed rate, mm/sec
M107
;TYPE:Custom
M862.3 P "MK3S" ; printer model check
M862.1 P0.4 ; nozzle diameter check
M115 U3.11.0 ; tell printer latest fw version
G90 ; use absolute coordinates
M83 ; extruder relative mode
M104 S240 ; set extruder temp
M140 S85 ; set bed temp
M190 S85 ; wait for bed temp
M109 S240 ; wait for extruder temp
G28 W ; home all without mesh bed level
G80 ; mesh bed leveling

G1 Z0.2 F720
G1 Y-3 F1000 ; go outside print area
G92 E0
G1 X60 E9 F1000 ; intro line
G1 X100 E12.5 F1000 ; intro line

G92 E0
M221 S95

; Don't change E values below. Excessive value can damage the printer.
M907 E430 ; set extruder motor current
G21 ; set units to millimeters
G90 ; use absolute coordinates
M83 ; use relative distances for extrusion
M900 K0.08 ; Filament gcode LA 1.5
M900 K45 ; Filament gcode LA 1.0
M107
;LAYER_CHANGE
;Z:0.2
;HEIGHT:0.2
;BEFORE_LAYER_CHANGE
G92 E0.0
;0.2


G1 E-1 F2100
G1 Z.2 F720
;AFTER_LAYER_CHANGE
;0.2
G1 Z.4
G1 X20.997 Y24.436 F10800
G1 Z.2 F720
G1 E1 F2100
M204 S800
;TYPE:Skirt/Brim
;WIDTH:0.42
G1 F1200
G1 X22.217 Y23.632 E.0458
G1 X25.658 Y22.698 E.11179
G1 X114.793 Y9.728 E2.82421
G1 X135.207 Y9.728 E.64006
G1 X224.342 Y22.698 E2.8242
G1 X227.783 Y23.632 E.11179
G1 X228.938 Y24.359 E.04278
G1 X229.515 Y25.701 E.0458
G1 X236.436 Y99.528 E2.32493
G1 X236.446 Y121.786 E.69789
G1 X226.354 Y193.383 E2.26706
G1 X225.783 Y194.622 E.04278
G1 X224 Y195.427 E.06134
G1 X26 Y195.427 E6.20815
G1 X24.693 Y195.035 E.04278
M73 P0 R542
G1 X23.646 Y193.383 E.06134
G1 X13.554 Y121.786 E2.26706
G1 X13.564 Y99.528 E.69789
G1 X20.485 Y25.701 E2.32493
M73 Q0 S550
G1 X20.975 Y24.492 E.0409
M204 S1000
; printing object rear-part.stl id:0 copy 0
;WIPE_START
G1 F8640
G1 X22.217 Y23.632 E-.34879
G1 X24.73 Y22.95 E-.60121
;WIPE_END
G1 E-.05 F2100
G1 Z.4 F720
G1 X25.52 Y36.424 F10800
G1 Z.2 F720
G1 E1 F2100
M204 S800
;TYPE:Support material
G1 F1200
G1 X22.852 Y36.424 E.08365
G1 X22.852 Y25.923 E.32925
G1 X25.52 Y25.923 E.08365
G1 X25.52 Y36.367 E.32748
M204 S1000
G1 X24.865 Y36.254 F10800
M204 S800
G1 F1200
G1 X24.865 Y26.262 E.31329
G1 X24.446 Y26.262 E.01314
G1 X24.446 Y36.085 E.30797
G1 X24.027 Y36.085 E.01314
G1 X24.027 Y26.262 E.30797
G1 X23.608 Y26.262 E.01314
G1 X23.608 Y36.254 E.31329
M204 S1000
;WIPE_START
G1 F8640
G1 X23.608 Y32.14 E-.95
;WIPE_END
G1 E-.05 F2100
G1 Z.4 F720
G1 X25.52 Y47.959 F10800
G1 Z.2 F720
G1 E1 F2100
M204 S800
G1 F1200
G1 X22.852 Y47.959 E.08365
G1 X22.852 Y37.458 E.32925
G1 X25.52 Y37.458 E.08365
G1 X25.52 Y47.903 E.32748
M204 S1000
G1 X24.865 Y47.79 F10800
M204 S800
G1 F1200
G1 X24.865 Y37.798 E.31329
G1 X24.446 Y37.798 E.01314
G1 X24.446 Y47.62 E.30797
G1 X24.027 Y47.62 E.01314
G1 X24.027 Y37.798 E.30797
G1 X23.608 Y37.798 E.01314
G1 X23.608 Y47.79 E.31329
M204 S1000
;WIPE_START
G1 F8640
G1 X23.608 Y43.675 E-.95
;WIPE_END
G1 E-.05 F2100
G1 Z.4 F720
G1 X25.52 Y121.786 F10800
G1 Z.2 F720
G1 E1 F2100
M204 S800
G1 F1200
G1 X15.931 Y121.786 E.30066
G1 X15.931 Y99.749 E.69094
G1 X25.52 Y99.749 E.30066
G1 X25.52 Y121.729 E.68916
M204 S1000
G1 X24.864 Y121.616 F10800
M204 S800
G1 F1200
G1 X24.864 Y100.089 E.67498
G1 X24.446 Y100.089 E.01314
G1 X24.446 Y121.447 E.66966
G1 X24.027 Y121.447 E.01314
G1 X24.027 Y100.089 E.66966
G1 X23.608 Y100.089 E.01314
G1 X23.608 Y121.447 E.66966
G1 X23.189 Y121.447 E.01314
G1 X23.189 Y100.089 E.66966
G1 X22.77 Y100.089 E.01314
G1 X22.77 Y121.447 E.66966
G1 X22.351 Y121.447 E.01314
G1 X22.351 Y100.089 E.66966
G1 X21.932 Y100.089 E.01314
G1 X21.932 Y121.447 E.66966
G1 X21.513 Y121.447 E.01314
G1 X21.513 Y100.089 E.66966
G1 X21.094 Y100.089 E.01314
G1 X21.094 Y121.447 E.66966
G1 X20.675 Y121.447 E.01314
G1 X20.675 Y100.089 E.66966
G1 X20.256 Y100.089 E.01314
G1 X20.256 Y121.447 E.66966
G1 X19.837 Y121.447 E.01314
G1 X19.837 Y100.089 E.66966
G1 X19.418 Y100.089 E.01314
G1 X19.418 Y121.447 E.66966
G1 X18.999 Y121.447 E.01314
G1 X18.999 Y100.089 E.66966
G1 X18.58 Y100.089 E.01314
G1 X18.58 Y121.447 E.66966
G1 X18.161 Y121.447 E.01314
G1 X18.161 Y100.089 E.66966
G1 X17.742 Y100.089 E.01314
G1 X17.742 Y121.447 E.66966
G1 X17.323 Y121.447 E.01314
G1 X17.323 Y100.089 E.66966
G1 X16.904 Y100.089 E.01314
G1 X16.904 Y121.447 E.66966
G1 X16.485 Y121.447 E.01314
G1 X16.485 Y99.919 E.67498
M204 S1000
;WIPE_START
G1 F8640
G1 X16.485 Y104.033 E-.95
;WIPE_END
G1 E-.05 F2100
G1 Z.4 F720
G1 X134.865 Y24.57 F10800
G1 Z.2 F720
G1 E1 F2100
M204 S800
G1 F1200
G1 X115.135 Y24.57 E.6186
G1 X115.135 Y12.08 E.3916
G1 X134.865 Y12.08 E.6186
G1 X134.865 Y24.513 E.38983
M204 S1000
G1 X134.218 Y24.4 F10800
M204 S800
G1 F1200
G1 X134.218 Y12.42 E.37564
G1 X133.799 Y12.42 E.01314
G1 X133.799 Y24.231 E.37032
G1 X133.38 Y24.231 E.01314
G1 X133.38 Y12.42 E.37032
G1 X132.961 Y12.42 E.01314
G1 X132.961 Y24.231 E.37032
G1 X132.542 Y24.231 E.01314
G1 X132.542 Y12.42 E.37032
G1 X132.123 Y12.42 E.01314
G1 X132.123 Y24.231 E.37032
G1 X131.704 Y24.231 E.01314
G1 X131.704 Y12.42 E.37032
G1 X131.285 Y12.42 E.01314
G1 X131.285 Y24.231 E.37032
G1 X130.866 Y24.231 E.01314
G1 X130.866 Y12.42 E.37032
G1 X130.447 Y12.42 E.01314
G1 X130.447 Y24.231 E.37032
G1 X130.028 Y24.231 E.01314
G1 X130.028 Y12.42 E.37032
G1 X129.609 Y12.42 E.01314
G1 X129.609 Y24.231 E.37032
G1 X129.19 Y24.231 E.01314
G1 X129.19 Y12.42 E.37032
G1 X128.771 Y12.42 E.01314
G1 X128.771 Y24.231 E.37032
M73 P0 R541
G1 X128.352 Y24.231 E.01314
G1 X128.352 Y12.42 E.37032
G1 X127.933 Y12.42 E.01314
G1 X127.933 Y24.231 E.37032
G1 X127.514 Y24.231 E.01314
G1 X127.514 Y12.42 E.37032
G1 X127.095 Y12.42 E.01314
G1 X127.095 Y24.231 E.37032
G1 X126.676 Y24.231 E.01314
G1 X126.676 Y12.42 E.37032
G1 X126.257 Y12.42 E.01314
G1 X126.257 Y24.231 E.37032
G1 X125.838 Y24.231 E.01314
G1 X125.838 Y12.42 E.37032
G1 X125.419 Y12.42 E.01314
G1 X125.419 Y24.231 E.37032
G1 X125 Y24.231 E.01314
G1 X125 Y12.42 E.37032
G1 X124.581 Y12.42 E.01314
G1 X124.581 Y24.231 E.37032
G1 X124.162 Y24.231 E.01314
M73 Q0 S549
G1 X124.162 Y12.42 E.37032
G1 X123.743 Y12.42 E.01314
G1 X123.743 Y24.231 E.37032
G1 X123.324 Y24.231 E.01314
G1 X123.324 Y12.42 E.37032
G1 X122.905 Y12.42 E.01314
G1 X122.905 Y24.231 E.37032
G1 X122.486 Y24.231 E.01314
G1 X122.486 Y12.42 E.37032
G1 X122.067 Y12.42 E.01314
G1 X122.067 Y24.231 E.37032
G1 X121.648 Y24.231 E.01314
G1 X121.648 Y12.42 E.37032
G1 X121.229 Y12.42 E.01314
G1 X121.229 Y24.231 E.37032
G1 X120.81 Y24.231 E.01314
G1 X120.81 Y12.42 E.37032
G1 X120.391 Y12.42 E.01314
G1 X120.391 Y24.231 E.37032
G1 X119.972 Y24.231 E.01314
G1 X119.972 Y12.42 E.37032
G1 X119.553 Y12.42 E.01314
G1 X119.553 Y24.231 E.37032
G1 X119.134 Y24.231 E.01314
G1 X119.134 Y12.42 E.37032
G1 X118.715 Y12.42 E.01314
G1 X118.715 Y24.231 E.37032
G1 X118.296 Y24.231 E.01314
G1 X118.296 Y12.42 E.37032
G1 X117.877 Y12.42 E.01314
G1 X117.877 Y24.231 E.37032
G1 X117.458 Y24.231 E.01314
G1 X117.458 Y12.42 E.37032
G1 X117.039 Y12.42 E.01314
G1 X117.039 Y24.231 E.37032
G1 X116.62 Y24.231 E.01314
G1 X116.62 Y12.42 E.37032
G1 X116.201 Y12.42 E.01314
G1 X116.201 Y24.231 E.37032
G1 X115.783 Y24.231 E.01314
G1 X115.783 Y12.25 E.37564
M204 S1000
;WIPE_START
G1 F8640
G1 X115.783 Y16.364 E-.95
;WIPE_END
G1 E-.05 F2100
G1 Z.4 F720
G1 X227.148 Y36.424 F10800
G1 Z.2 F720
G1 E1 F2100
M204 S800
G1 F1200
G1 X224.48 Y36.424 E.08365
G1 X224.48 Y25.923 E.32925
G1 X227.148 Y25.923 E.08365
G1 X227.148 Y36.367 E.32748
M204 S1000
G1 X226.392 Y36.254 F10800
M204 S800
G1 F1200
G1 X226.392 Y26.262 E.31329
G1 X225.973 Y26.262 E.01314
G1 X225.973 Y36.085 E.30797
G1 X225.554 Y36.085 E.01314
G1 X225.554 Y26.262 E.30797
G1 X225.136 Y26.262 E.01314
G1 X225.136 Y36.254 E.31329
M204 S1000
;WIPE_START
G1 F8640
G1 X225.136 Y32.14 E-.95
;WIPE_END
G1 E-.05 F2100
G1 Z.4 F720
G1 X227.148 Y66.416 F10800
G1 Z.2 F720
G1 E1 F2100
M204 S800
G1 F1200
G1 X224.48 Y66.416 E.08365
G1 X224.48 Y37.458 E.90795
G1 X227.148 Y37.458 E.08365
G1 X227.148 Y66.359 E.90617
M204 S1000
G1 X226.392 Y66.246 F10800
M204 S800
G1 F1200
G1 X226.392 Y37.798 E.89199
G1 X225.973 Y37.798 E.01314
G1 X225.973 Y66.077 E.88667
G1 X225.554 Y66.077 E.01314
G1 X225.554 Y37.798 E.88667
G1 X225.136 Y37.798 E.01314
G1 X225.136 Y66.246 E.89199
M204 S1000
;WIPE_START
G1 F8640
G1 X225.136 Y62.132 E-.95
;WIPE_END
G1 E-.05 F2100
G1 Z.4 F720
G1 X227.148 Y87.18 F10800
G1 Z.2 F720
G1 E1 F2100
M204 S800
G1 F1200
G1 X224.48 Y87.18 E.08365
G1 X224.48 Y67.45 E.6186
G1 X227.148 Y67.45 E.08365
G1 X227.148 Y87.123 E.61683
M204 S1000
G1 X226.392 Y87.01 F10800
M204 S800
G1 F1200
G1 X226.392 Y67.79 E.60264
G1 X225.973 Y67.79 E.01314
G1 X225.973 Y86.84 E.59732
G1 X225.554 Y86.84 E.01314
G1 X225.554 Y67.79 E.59732
G1 X225.136 Y67.79 E.01314
G1 X225.136 Y87.01 E.60264
M204 S1000
;WIPE_START
G1 F8640
G1 X225.136 Y82.896 E-.95
;WIPE_END
G1 E-.05 F2100
G1 Z.4 F720
G1 X234.069 Y121.786 F10800
G1 Z.2 F720
G1 E1 F2100
M204 S800
G1 F1200
G1 X224.48 Y121.786 E.30066
G1 X224.48 Y99.749 E.69094
G1 X234.069 Y99.749 E.30066
G1 X234.069 Y121.729 E.68916
M204 S1000
G1 X233.515 Y121.616 F10800
M204 S800
G1 F1200
G1 X233.515 Y100.089 E.67498
G1 X233.096 Y100.089 E.01314
G1 X233.096 Y121.447 E.66966
G1 X232.677 Y121.447 E.01314
G1 X232.677 Y100.089 E.66966
G1 X232.258 Y100.089 E.01314
G1 X232.258 Y121.447 E.66966
G1 X231.839 Y121.447 E.01314
G1 X231.839 Y100.089 E.66966
G1 X231.42 Y100.089 E.01314
G1 X231.42 Y121.447 E.66966
G1 X231.001 Y121.447 E.01314
G1 X231.001 Y100.089 E.66966
G1 X230.582 Y100.089 E.01314
G1 X230.582 Y121.447 E.66966
G1 X230.163 Y121.447 E.01314
G1 X230.163 Y100.089 E.66966
G1 X229.744 Y100.089 E.01314
G1 X229.744 Y121.447 E.66966
G1 X229.325 Y121.447 E.01314
G1 X229.325 Y100.089 E.66966
G1 X228.906 Y100.089 E.01314
G1 X228.906 Y121.447 E.66966
G1 X228.487 Y121.447 E.01314
G1 X228.487 Y100.089 E.66966
G1 X228.068 Y100.089 E.01314
G1 X228.068 Y121.447 E.66966
G1 X227.649 Y121.447 E.01314
M73 P0 R540
G1 X227.649 Y100.089 E.66966
G1 X227.23 Y100.089 E.01314
G1 X227.23 Y121.447 E.66966
G1 X226.811 Y121.447 E.01314
G1 X226.811 Y100.089 E.66966
G1 X226.392 Y100.089 E.01314
G1 X226.392 Y121.447 E.66966
G1 X225.973 Y121.447 E.01314
G1 X225.973 Y100.089 E.66966
G1 X225.554 Y100.089 E.01314
G1 X225.554 Y121.447 E.66966
G1 X225.136 Y121.447 E.01314
M73 Q0 S548
G1 X225.136 Y99.919 E.67498
M204 S1000
;WIPE_START
G1 F8640
G1 X225.136 Y104.033 E-.95
;WIPE_END
G1 E-.05 F2100
G1 Z.4 F720
G1 X117.417 Y31.934 F10800
G1 Z.2 F720
G1 E1 F2100
M204 S800
;TYPE:Perimeter
;WIDTH:0.419999
G1 F1200
G1 X117.463 Y31.875 E.00234
G1 X117.71 Y31.776 E.00834
G1 X118.961 Y31.822 E.03925
G1 X119.667 Y31.972 E.02264
G1 X119.917 Y32.178 E.01015
G1 X119.971 Y32.303 E.00428
G1 X120.633 Y31.935 E.02373
G1 X121.455 Y31.779 E.02625
G1 X122.059 Y31.787 E.01892
G1 X122.843 Y31.937 E.02504
G1 X123.328 Y32.134 E.0164
G1 X123.772 Y32.437 E.01685
G1 X124.139 Y32.18 E.01406
G1 X124.623 Y31.957 E.01669
G1 X125.2 Y31.816 E.01863
G1 X126.152 Y31.787 E.02985
G1 X126.96 Y31.936 E.02578
G1 X127.458 Y32.141 E.01688
G1 X127.903 Y32.442 E.01683
G1 X128.203 Y32.747 E.01341
;WIDTH:0.466378
G1 X128.36 Y32.976 E.00978
;WIDTH:0.512757
G1 X128.517 Y33.205 E.01085
;WIDTH:0.559135
G1 X128.673 Y33.434 E.01192
G1 X128.71 Y33.661 E.00988
;WIDTH:0.512757
G1 X128.746 Y33.888 E.00899
;WIDTH:0.466378
G1 X128.782 Y34.116 E.0081
;WIDTH:0.419999
G1 X128.835 Y34.668 E.01739
G1 X128.844 Y36.128 E.04578
G1 X128.988 Y35.774 E.012
G1 X129.221 Y35.446 E.01261
G1 X129.566 Y35.129 E.01469
G1 X130.11 Y34.827 E.0195
G1 X129.555 Y33.909 E.03363
;WIDTH:0.462252
G1 X129.44 Y33.728 E.00746
;WIDTH:0.504505
G1 X129.326 Y33.547 E.00822
;WIDTH:0.546757
G1 X129.212 Y33.366 E.00897
;WIDTH:0.559135
G1 X129.153 Y33.246 E.00572
G1 X129.176 Y33.123 E.00539
;WIDTH:0.512757
G1 X129.198 Y32.999 E.00491
;WIDTH:0.466378
G1 X129.221 Y32.875 E.00442
;WIDTH:0.419999
G1 X129.355 Y32.655 E.00808
G1 X129.551 Y32.525 E.00739
G1 X130.329 Y32.17 E.02681
G1 X131.045 Y31.949 E.02348
G1 X131.786 Y31.817 E.02361
G1 X132.535 Y31.771 E.02353
G1 X133.484 Y31.837 E.02983
G1 X134.081 Y31.972 E.01918
G1 X134.562 Y32.158 E.01617
G1 X135.06 Y32.462 E.0183
G1 X135.391 Y32.758 E.01394
G1 X135.664 Y33.107 E.01386
G1 X135.907 Y33.582 E.01673
G1 X136.051 Y34.106 E.01705
;WIDTH:0.408321
G1 X136.099 Y34.675 E.01735
;WIDTH:0.376245
G1 X136.102 Y34.736 E.00168
;WIDTH:0.374008
G1 X136.102 Y39.341 E.12679
;WIDTH:0.419999
G1 X135.935 Y39.765 E.01428
G1 X135.659 Y39.898 E.00962
G1 X133.918 Y39.907 E.05459
G1 X133.681 Y39.853 E.0076
G1 X133.594 Y39.802 E.00317
G1 X133.362 Y39.45 E.01321
G1 X132.782 Y39.723 E.0201
G1 X131.836 Y39.894 E.03012
G1 X130.894 Y39.858 E.02955
G1 X130.241 Y39.68 E.02123
G1 X129.717 Y39.394 E.01873
G1 X129.247 Y38.956 E.02013
G1 X128.904 Y38.4 E.02048
G1 X128.845 Y38.252 E.005
G1 X128.845 Y39.341 E.03416
G1 X128.762 Y39.636 E.00959
G1 X128.541 Y39.843 E.00949
G1 X128.279 Y39.907 E.00846
G1 X126.026 Y39.907 E.07065
G1 X125.821 Y39.869 E.00655
G1 X125.596 Y39.709 E.00863
;WIDTH:0.464998
G1 X125.54 Y39.617 E.00379
;WIDTH:0.509997
G1 X125.484 Y39.525 E.00419
;WIDTH:0.554996
G1 X125.427 Y39.433 E.00459
;WIDTH:0.599994
G1 X125.371 Y39.341 E.005
G1 X125.371 Y35.861 E.16123
;WIDTH:0.599594
G1 X125.379 Y35.316 E.0252
;WIDTH:0.571226
G1 X125.315 Y34.896 E.01868
G1 X125.24 Y34.872 E.00346
G1 X125.003 Y34.937 E.01081
G1 X124.856 Y35.278 E.01631
;WIDTH:0.599594
G1 X124.814 Y35.861 E.02704
;WIDTH:0.599994
G1 X124.813 Y39.342 E.16124
G1 X124.757 Y39.434 E.005
;WIDTH:0.554996
G1 X124.701 Y39.525 E.00459
;WIDTH:0.509997
G1 X124.644 Y39.617 E.00419
;WIDTH:0.464998
G1 X124.588 Y39.709 E.00379
;WIDTH:0.419999
G1 X124.316 Y39.884 E.01012
G1 X124.158 Y39.907 E.00502
G1 X121.909 Y39.907 E.07053
G1 X121.703 Y39.869 E.00655
G1 X121.479 Y39.709 E.00862
;WIDTH:0.464999
G1 X121.422 Y39.617 E.00379
;WIDTH:0.509999
G1 X121.366 Y39.525 E.00419
;WIDTH:0.554999
G1 X121.309 Y39.433 E.0046
;WIDTH:0.599999
G1 X121.253 Y39.341 E.005
G1 X121.254 Y35.965 E.15641
;WIDTH:0.598718
G1 X121.268 Y35.416 E.02539
;WIDTH:0.569306
G1 X121.213 Y34.928 E.02147
;WIDTH:0.56027
G1 X121.168 Y34.87 E.00315
G1 X120.924 Y34.907 E.01062
G1 X120.822 Y35.053 E.00768
;WIDTH:0.569306
G1 X120.743 Y35.387 E.01504
;WIDTH:0.598718
G1 X120.698 Y35.965 E.02676
;WIDTH:0.6
G1 X120.696 Y39.342 E.15644
G1 X120.639 Y39.434 E.005
;WIDTH:0.555
G1 X120.583 Y39.526 E.00459
;WIDTH:0.51
G1 X120.526 Y39.618 E.00419
;WIDTH:0.465
G1 X120.47 Y39.709 E.00379
;WIDTH:0.419999
G1 X120.199 Y39.884 E.01011
G1 X120.04 Y39.907 E.00502
G1 X117.722 Y39.903 E.07268
G1 X117.536 Y39.846 E.00611
G1 X117.346 Y39.69 E.00771
G1 X117.229 Y39.409 E.00953
G1 X117.226 Y37.121 E.07175
;WIDTH:0.461539
G1 X117.204 Y36.632 E.01705
G1 X117.089 Y37.098 E.01671
;WIDTH:0.419999
G1 X116.834 Y37.82 E.02401
G1 X116.481 Y38.419 E.02181
G1 X116.062 Y38.877 E.01945
G1 X115.866 Y39.065 E.00854
G1 X115.393 Y39.388 E.01794
G1 X114.603 Y39.72 E.02687
G1 X113.71 Y39.885 E.02847
G1 X112.797 Y39.887 E.02863
G1 X112.029 Y39.754 E.02442
G1 X111.356 Y39.507 E.02249
G1 X110.772 Y39.159 E.0213
G1 X110.144 Y38.562 E.02719
G1 X109.682 Y37.84 E.02688
G1 X109.424 Y37.159 E.02281
G1 X109.285 Y36.438 E.02303
G1 X109.253 Y35.89 E.01721
G1 X109.295 Y35.129 E.02391
G1 X108.777 Y35.056 E.01642
G1 X108.221 Y35.06 E.01742
G1 X107.944 Y35.142 E.00904
G1 X107.636 Y35.331 E.01134
G1 X107.506 Y35.62 E.00994
G1 X107.481 Y36.41 E.02479
G1 X107.48 Y39.342 E.0919
G1 X107.417 Y39.602 E.00839
G1 X107.234 Y39.808 E.00866
G1 X106.914 Y39.907 E.01048
G1 X104.665 Y39.907 E.07053
G1 X104.387 Y39.834 E.00903
