; generated by PrusaSlicer 2.5.0+win64 on 2023-01-30 at 19:09:09 UTC


;
;
; 

; external perimeters extrusion width = 0.45mm
; perimeters extrusion width = 0.45mm
; infill extrusion width = 0.45mm
; solid infill extrusion width = 0.45mm
; top infill extrusion width = 0.40mm
; support material extrusion width = 0.35mm
; first layer extrusion width = 0.42mm

; external perimeters extrusion width = 0.45mm
; perimeters extrusion width = 0.45mm
; infill extrusion width = 0.45mm
; solid infill extrusion width = 0.45mm
; top infill extrusion width = 0.40mm
; support material extrusion width = 0.35mm
; first layer extrusion width = 0.42mm

; external perimeters extrusion width = 0.45mm
; perimeters extrusion width = 0.45mm
; infill extrusion width = 0.45mm
; solid infill extrusion width = 0.45mm
; top infill extrusion width = 0.40mm
; support material extrusion width = 0.35mm
; first layer extrusion width = 0.42mm

; external perimeters extrusion width = 0.45mm
; perimeters extrusion width = 0.45mm
; infill extrusion width = 0.45mm
; solid infill extrusion width = 0.45mm
; top infill extrusion width = 0.40mm
; support material extrusion width = 0.35mm
; first layer extrusion width = 0.42mm

M73 P0 R113
M73 Q0 S116
M201 X1000 Y1000 Z200 E5000 ; sets maximum accelerations, mm/sec^2
M203 X200 Y200 Z12 E120 ; sets maximum feedrates, mm / sec
M204 P1250 R1250 T1250 ; sets acceleration (P, T) and retract acceleration (R), mm/sec^2
M205 X8.00 Y8.00 Z0.40 E4.50 ; sets the jerk limits, mm/sec
M205 S0 T0 ; sets the minimum extruding and travel feed rate, mm/sec
M107
;TYPE:Custom
M862.3 P "MK3S" ; printer model check
M862.1 P0.4 ; nozzle diameter check
M115 U3.11.0 ; tell printer latest fw version
G90 ; use absolute coordinates
M83 ; extruder relative mode
M104 S240 ; set extruder temp
M140 S85 ; set bed temp
M190 S85 ; wait for bed temp
M109 S240 ; wait for extruder temp
G28 W ; home all without mesh bed level
G80 ; mesh bed leveling

G1 Z0.2 F720
G1 Y-3 F1000 ; go outside print area
G92 E0
G1 X60 E9 F1000 ; intro line
G1 X100 E12.5 F1000 ; intro line

G92 E0
M221 S95

; Don't change E values below. Excessive value can damage the printer.
M907 E430 ; set extruder motor current
G21 ; set units to millimeters
G90 ; use absolute coordinates
M83 ; use relative distances for extrusion
M900 K0.08 ; Filament gcode LA 1.5
M900 K45 ; Filament gcode LA 1.0
M107
;LAYER_CHANGE
;Z:0.2
;HEIGHT:0.2
;BEFORE_LAYER_CHANGE
G92 E0.0
;0.2


G1 E-1 F2100
M73 Q0 S115
G1 Z.2 F720
;AFTER_LAYER_CHANGE
;0.2
G1 Z.4
G1 X34.444 Y98.667 F10800
G1 Z.2 F720
G1 E1 F2100
M204 S800
;TYPE:Skirt/Brim
;WIDTH:0.42
G1 F1200
G1 X116.544 Y82.607 E2.62298
G1 X133.456 Y82.607 E.53029
G1 X215.556 Y98.667 E2.62298
G1 X216.764 Y99.302 E.04278
G1 X217.477 Y101 E.05773
G1 X217.463 Y109.26 E.25899
G1 X214.216 Y138.769 E.93081
G1 X214.013 Y139.553 E.02541
G1 X213.641 Y140.236 E.02438
G1 X213.283 Y140.658 E.01733
G1 X212.797 Y141.055 E.01969
G1 X212.26 Y141.343 E.01911
G1 X211.672 Y141.528 E.01934
G1 X136.593 Y157.316 E2.40553
G1 X113.563 Y159.525 E.7254
G1 X111.309 Y159.536 E.07067
G1 X110.737 Y159.466 E.01805
G1 X38.187 Y141.494 E2.34352
G1 X37.62 Y141.29 E.01891
G1 X37.087 Y140.973 E.01944
G1 X36.623 Y140.561 E.01945
G1 X36.209 Y140.006 E.0217
G1 X35.942 Y139.433 E.01982
G1 X35.779 Y138.722 E.02289
G1 X32.523 Y109 E.93748
G1 X32.523 Y101 E.25083
G1 X32.915 Y99.693 E.04278
G1 X34.394 Y98.701 E.05585
M204 S1000
; printing object switch-cover.stl id:3 copy 0
;WIPE_START
G1 F8640
G1 X38.431 Y97.91 E-.95
;WIPE_END
G1 E-.05 F2100
G1 Z.4 F720
G1 X111.309 Y143.316 F10800
G1 Z.2 F720
G1 E1 F2100
M204 S800
;TYPE:Support material interface
;WIDTH:0.35
G1 F1200
G1 X111.309 Y147.93 E.11782
G1 X111.816 Y147.93 E.01295
G1 X111.816 Y143.316 E.11782
G1 X112.323 Y143.316 E.01295
G1 X112.323 Y147.93 E.11782
G1 X112.83 Y147.93 E.01295
G1 X112.83 Y143.316 E.11782
G1 X113.337 Y143.316 E.01295
G1 X113.337 Y145.201 E.04813
G1 X113.112 Y145.201 E.00574
G1 X113.076 Y145.238 E.00131
M204 S1000
;WIPE_START
G1 F8640
G1 X113.112 Y145.201 E-.01188
G1 X113.337 Y145.201 E-.05194
G1 X113.337 Y143.316 E-.43525
G1 X112.83 Y143.316 E-.11709
G1 X112.83 Y144.762 E-.33384
;WIPE_END
G1 E-.05 F2100
G1 Z.4 F720
G1 X113.337 Y155.27 F10800
G1 Z.2 F720
G1 E1 F2100
M204 S800
G1 F1200
G1 X113.337 Y157.159 E.04822
G1 X112.83 Y157.159 E.01295
G1 X112.83 Y152.544 E.11782
G1 X112.323 Y152.544 E.01295
G1 X112.323 Y157.159 E.11782
G1 X111.816 Y157.159 E.01295
G1 X111.816 Y152.544 E.11782
G1 X111.309 Y152.544 E.01295
G1 X111.309 Y157.159 E.11782
M204 S1000
;WIPE_START
G1 F8640
G1 X111.309 Y153.044 E-.95
;WIPE_END
G1 E-.05 F2100
G1 Z.4 F720
G1 X116.305 Y153.055 F10800
G1 Z.2 F720
G1 E1 F2100
M204 S800
;TYPE:Perimeter
;WIDTH:0.419999
G1 F1200
G1 X116.337 Y152.959 E.00319
G1 X116.337 Y147.516 E.17066
G1 X116.224 Y147.177 E.01121
G1 X115.998 Y147.08 E.00772
;WIDTH:0.387122
G1 X115.771 Y146.983 E.00704
;WIDTH:0.354244
G1 X114.482 Y146.983 E.03337
;WIDTH:0.353742
G1 X114.325 Y146.983 E.00406
G1 X114.328 Y146.673 E.00803
G1 X114.482 Y146.673 E.00397
;WIDTH:0.354244
G1 X115.771 Y146.672 E.03337
;WIDTH:0.387122
G1 X116.116 Y146.688 E.00987
;WIDTH:0.419999
G1 X116.46 Y146.704 E.01081
G1 X135.648 Y146.689 E.60164
G1 X135.648 Y153.786 E.2225
G1 X116.461 Y153.773 E.60159
G1 X116.116 Y153.789 E.01083
;WIDTH:0.387822
G1 X115.771 Y153.805 E.00991
;WIDTH:0.355645
G1 X114.482 Y153.804 E.03352
;WIDTH:0.355233
G1 X114.327 Y153.804 E.00402
G1 X114.325 Y153.492 E.00811
G1 X114.482 Y153.492 E.00409
;WIDTH:0.355645
G1 X115.771 Y153.492 E.03352
;WIDTH:0.360872
G1 X115.864 Y153.487 E.00244
;WIDTH:0.390436
G1 X116.044 Y153.393 E.00588
;WIDTH:0.419999
G1 X116.224 Y153.298 E.00638
G1 X116.286 Y153.112 E.00614
M204 S1000
G1 X115.96 Y152.959 F10800
M204 S800
;TYPE:External perimeter
G1 F1200
G1 X115.96 Y147.516 E.17066
G1 X115.922 Y147.403 E.00374
G1 X115.771 Y147.327 E.00529
G1 X113.978 Y147.327 E.05624
G1 X113.988 Y146.329 E.0313
G1 X135.888 Y146.312 E.68666
G1 X135.99 Y146.339 E.00332
G1 X136.025 Y146.449 E.00362
G1 X136.025 Y154.025 E.23754
G1 X136.01 Y154.089 E.00206
G1 X135.922 Y154.163 E.00359
G1 X113.986 Y154.149 E.6878
G1 X113.977 Y153.147 E.0314
G1 X115.771 Y153.147 E.05625
G1 X115.922 Y153.072 E.00529
G1 X115.941 Y153.016 E.00186
M204 S1000
G1 X116.346 Y152.855 F10800
;WIPE_START
G1 F8640
G1 X115.955 Y148.901 E-.95
;WIPE_END
G1 E-.05 F2100
G1 Z.4 F720
G1 X134.77 Y146.803 F10800
G1 Z.2 F720
G1 E1 F2100
M204 S800
;TYPE:Solid infill
;WIDTH:0.421915
G1 F1200
G1 X135.366 Y147.399 E.02656
G1 X135.366 Y147.935 E.01689
G1 X134.404 Y146.973 E.04288
G1 X133.868 Y146.973 E.01688
G1 X135.366 Y148.471 E.06674
M73 P0 R112
G1 X135.366 Y149.007 E.01689
G1 X133.332 Y146.974 E.09061
G1 X132.797 Y146.974 E.01688
G1 X135.366 Y149.543 E.11448
G1 X135.366 Y150.079 E.01689
G1 X132.261 Y146.975 E.13835
G1 X131.726 Y146.975 E.01688
G1 X135.366 Y150.615 E.16222
G1 X135.366 Y151.151 E.01689
G1 X131.19 Y146.976 E.18609
G1 X130.655 Y146.976 E.01688
G1 X135.366 Y151.687 E.20995
G1 X135.366 Y152.223 E.01689
G1 X130.119 Y146.976 E.23382
G1 X129.583 Y146.977 E.01688
G1 X135.366 Y152.759 E.25769
G1 X135.366 Y153.295 E.01689
G1 X129.048 Y146.977 E.28156
G1 X128.512 Y146.978 E.01688
G1 X135.037 Y153.502 E.29079
G1 X134.501 Y153.502 E.0169
G1 X127.977 Y146.978 E.29075
G1 X127.441 Y146.978 E.01688
G1 X133.964 Y153.502 E.29072
G1 X133.428 Y153.501 E.0169
G1 X126.906 Y146.979 E.29068
G1 X126.37 Y146.979 E.01688
G1 X132.892 Y153.501 E.29065
G1 X132.355 Y153.501 E.0169
G1 X125.834 Y146.98 E.29062
G1 X125.299 Y146.98 E.01688
G1 X131.819 Y153.5 E.29058
G1 X131.283 Y153.5 E.0169
G1 X124.763 Y146.981 E.29055
G1 X124.228 Y146.981 E.01688
G1 X130.746 Y153.5 E.29052
G1 X130.21 Y153.499 E.0169
G1 X123.692 Y146.981 E.29048
G1 X123.157 Y146.982 E.01688
G1 X129.674 Y153.499 E.29045
G1 X129.137 Y153.499 E.0169
G1 X122.621 Y146.982 E.29041
G1 X122.086 Y146.983 E.01688
G1 X128.601 Y153.498 E.29038
G1 X128.065 Y153.498 E.0169
G1 X121.55 Y146.983 E.29035
G1 X121.014 Y146.983 E.01688
G1 X127.529 Y153.498 E.29031
G1 X126.992 Y153.497 E.0169
G1 X120.479 Y146.984 E.29028
G1 X119.943 Y146.984 E.01688
G1 X126.456 Y153.497 E.29025
G1 X125.92 Y153.497 E.0169
G1 X119.408 Y146.985 E.29021
G1 X118.872 Y146.985 E.01688
G1 X125.383 Y153.496 E.29018
G1 X124.847 Y153.496 E.0169
G1 X118.337 Y146.986 E.29014
G1 X117.801 Y146.986 E.01688
G1 X124.311 Y153.495 E.29011
G1 X123.774 Y153.495 E.0169
G1 X117.265 Y146.986 E.29008
G1 X116.73 Y146.987 E.01688
G1 X123.238 Y153.495 E.29004
G1 X122.702 Y153.494 E.0169
G1 X116.576 Y147.369 E.273
G1 X116.62 Y147.501 E.00438
G1 X116.62 Y147.949 E.01412
G1 X122.165 Y153.494 E.24714
G1 X121.629 Y153.494 E.0169
G1 X116.62 Y148.485 E.22324
G1 X116.62 Y149.021 E.01689
G1 X121.093 Y153.493 E.19934
G1 X120.556 Y153.493 E.0169
G1 X116.62 Y149.557 E.17543
G1 X116.62 Y150.093 E.01689
G1 X120.02 Y153.493 E.15153
G1 X119.484 Y153.492 E.0169
G1 X116.62 Y150.629 E.12763
G1 X116.62 Y151.165 E.01689
G1 X118.947 Y153.492 E.10373
G1 X118.411 Y153.492 E.0169
G1 X116.62 Y151.701 E.07983
G1 X116.62 Y152.237 E.01689
G1 X117.875 Y153.491 E.05592
G1 X117.338 Y153.491 E.0169
G1 X116.62 Y152.773 E.03202
G1 X116.62 Y152.974 E.00635
G1 X116.536 Y153.225 E.00833
G1 X116.972 Y153.66 E.01941
M204 S1000
; stop printing object switch-cover.stl id:3 copy 0
; printing object switches-cover.stl id:2 copy 0
;WIPE_START
G1 F8640
G1 X116.536 Y153.225 E-.14223
G1 X116.62 Y152.974 E-.06104
G1 X116.62 Y152.773 E-.04655
G1 X117.338 Y153.491 E-.23463
G1 X117.875 Y153.491 E-.12384
G1 X116.828 Y152.445 E-.34172
;WIPE_END
G1 E-.05 F2100
G1 Z.4 F720
G1 X39.457 Y115.218 F10800
G1 Z.2 F720
G1 E1 F2100
M204 S800
;TYPE:Support material interface
;WIDTH:0.35
G1 F1200
G1 X39.638 Y115.218 E.00462
G1 X39.638 Y113.513 E.04353
G1 X39.304 Y113.513 E.00854
G1 X39.304 Y115.218 E.04353
G1 X38.797 Y115.218 E.01295
G1 X38.797 Y113.513 E.04353
G1 X38.289 Y113.513 E.01295
G1 X38.289 Y115.218 E.04353
G1 X38.111 Y115.218 E.00457
G1 X38.028 Y115.301 E.00298
M204 S1000
;WIPE_START
G1 F8640
G1 X38.111 Y115.218 E-.02695
G1 X38.289 Y115.218 E-.04131
G1 X38.289 Y113.513 E-.39368
G1 X38.797 Y113.513 E-.11709
G1 X38.797 Y115.12 E-.37097
;WIPE_END
G1 E-.05 F2100
G1 Z.4 F720
G1 X38.136 Y113.513 F10800
G1 Z.2 F720
G1 E1 F2100
M204 S800
G1 F1200
G1 X37.782 Y113.513 E.00903
G1 X37.782 Y115.82 E.05891
G1 X37.331 Y115.82 E.01153
G1 X37.331 Y113.513 E.05891
G1 X37.629 Y113.513 E.00761
M204 S1000
;WIPE_START
G1 F8640
G1 X37.331 Y113.513 E-.06878
G1 X37.331 Y115.82 E-.53272
G1 X37.782 Y115.82 E-.10424
G1 X37.782 Y114.762 E-.24426
;WIPE_END
G1 E-.05 F2100
G1 Z.4 F720
G1 X210.543 Y113.513 F10800
G1 Z.2 F720
G1 E1 F2100
M204 S800
G1 F1200
G1 X210.362 Y113.513 E.00462
G1 X210.362 Y115.218 E.04354
G1 X210.696 Y115.218 E.00854
G1 X210.696 Y113.513 E.04354
G1 X211.203 Y113.513 E.01295
G1 X211.203 Y115.218 E.04354
G1 X211.711 Y115.218 E.01295
G1 X211.711 Y113.513 E.04354
G1 X212.218 Y113.513 E.01295
G1 X212.218 Y115.82 E.05891
G1 X212.669 Y115.82 E.01153
G1 X212.669 Y113.513 E.05891
G1 X212.371 Y113.513 E.00761
M204 S1000
;WIPE_START
G1 F8640
G1 X212.669 Y113.513 E-.06879
G1 X212.669 Y115.82 E-.53272
G1 X212.218 Y115.82 E-.10425
G1 X212.218 Y114.762 E-.24424
;WIPE_END
G1 E-.05 F2100
M73 Q0 S114
G1 Z.4 F720
G1 X164.801 Y118.221 F10800
G1 Z.2 F720
G1 E1 F2100
M204 S800
;TYPE:Perimeter
;WIDTH:0.419999
G1 F1200
G1 X164.83 Y118.127 E.00308
G1 X164.83 Y116.707 E.04452
G1 X172.872 Y116.707 E.25218
G1 X172.872 Y118.127 E.04452
G1 X172.968 Y118.442 E.01032
G1 X173.166 Y118.623 E.00841
G1 X173.438 Y118.693 E.00881
G1 X178.881 Y118.693 E.17066
G1 X179.137 Y118.631 E.00826
G1 X179.351 Y118.442 E.00896
G1 X179.447 Y118.127 E.01032
G1 X179.447 Y116.707 E.04452
G1 X187.489 Y116.707 E.25218
G1 X187.489 Y118.127 E.04452
G1 X187.585 Y118.442 E.01032
G1 X187.783 Y118.623 E.00841
G1 X188.055 Y118.693 E.00881
G1 X193.498 Y118.693 E.17066
G1 X193.754 Y118.631 E.00826
G1 X193.968 Y118.442 E.00896
G1 X194.064 Y118.127 E.01032
G1 X194.064 Y116.707 E.04452
G1 X202.106 Y116.707 E.25218
G1 X202.106 Y118.127 E.04452
G1 X202.202 Y118.442 E.01032
G1 X202.4 Y118.623 E.00841
G1 X202.672 Y118.693 E.00881
G1 X208.115 Y118.693 E.17066
G1 X208.273 Y118.67 E.00502
G1 X208.454 Y118.58 E.00634
G1 X208.614 Y118.393 E.00769
G1 X208.681 Y118.127 E.0086
G1 X208.681 Y116.707 E.04452
G1 X210.649 Y116.707 E.06171
G1 X210.648 Y138.002 E.66768
G1 X39.356 Y138.004 E5.37075
M73 P1 R112
M73 Q1 S114
G1 X39.351 Y116.707 E.66775
G1 X41.319 Y116.707 E.0617
G1 X41.319 Y118.127 E.04452
G1 X41.386 Y118.393 E.0086
G1 X41.546 Y118.58 E.00769
G1 X41.727 Y118.67 E.00635
G1 X41.885 Y118.693 E.00502
G1 X47.328 Y118.693 E.17066
G1 X47.584 Y118.631 E.00826
G1 X47.798 Y118.442 E.00896
G1 X47.894 Y118.127 E.01032
G1 X47.894 Y116.707 E.04452
G1 X55.936 Y116.707 E.25218
G1 X55.936 Y118.127 E.04452
G1 X56.032 Y118.442 E.01032
G1 X56.23 Y118.623 E.00841
G1 X56.502 Y118.693 E.00881
G1 X61.945 Y118.693 E.17066
G1 X62.201 Y118.631 E.00826
G1 X62.415 Y118.442 E.00896
G1 X62.511 Y118.127 E.01032
G1 X62.511 Y116.707 E.04452
G1 X70.553 Y116.707 E.25218
G1 X70.553 Y118.127 E.04452
G1 X70.649 Y118.442 E.01032
G1 X70.847 Y118.623 E.00841
G1 X71.119 Y118.693 E.00881
G1 X76.562 Y118.693 E.17066
G1 X76.818 Y118.631 E.00826
G1 X77.032 Y118.442 E.00896
G1 X77.128 Y118.127 E.01032
G1 X77.128 Y116.707 E.04452
G1 X85.17 Y116.707 E.25218
G1 X85.17 Y118.127 E.04452
G1 X85.266 Y118.442 E.01032
G1 X85.464 Y118.623 E.00841
G1 X85.736 Y118.693 E.00881
G1 X91.179 Y118.693 E.17066
G1 X91.435 Y118.631 E.00826
G1 X91.649 Y118.442 E.00896
G1 X91.745 Y118.127 E.01032
G1 X91.745 Y116.707 E.04452
G1 X99.787 Y116.707 E.25218
G1 X99.787 Y118.127 E.04452
G1 X99.883 Y118.442 E.01032
G1 X100.081 Y118.623 E.00841
G1 X100.353 Y118.693 E.00881
G1 X105.796 Y118.693 E.17066
G1 X106.052 Y118.631 E.00826
G1 X106.266 Y118.442 E.00896
G1 X106.362 Y118.127 E.01032
G1 X106.362 Y116.707 E.04452
G1 X114.404 Y116.707 E.25218
G1 X114.404 Y118.127 E.04452
G1 X114.5 Y118.442 E.01032
G1 X114.698 Y118.623 E.00841
G1 X114.97 Y118.693 E.00881
G1 X120.413 Y118.693 E.17066
G1 X120.669 Y118.631 E.00826
G1 X120.883 Y118.442 E.00896
G1 X120.979 Y118.127 E.01032
G1 X120.979 Y116.707 E.04452
G1 X129.021 Y116.707 E.25218
G1 X129.021 Y118.127 E.04452
G1 X129.117 Y118.442 E.01032
G1 X129.315 Y118.623 E.00841
G1 X129.587 Y118.693 E.00881
G1 X135.03 Y118.693 E.17066
G1 X135.286 Y118.631 E.00826
G1 X135.5 Y118.442 E.00896
G1 X135.596 Y118.127 E.01032
G1 X135.596 Y116.707 E.04452
G1 X143.638 Y116.707 E.25218
G1 X143.638 Y118.127 E.04452
G1 X143.734 Y118.442 E.01032
G1 X143.932 Y118.623 E.00841
G1 X144.204 Y118.693 E.00881
G1 X149.647 Y118.693 E.17066
G1 X149.903 Y118.631 E.00826
G1 X150.117 Y118.442 E.00896
G1 X150.213 Y118.127 E.01032
G1 X150.213 Y116.707 E.04452
G1 X158.255 Y116.707 E.25218
G1 X158.255 Y118.127 E.04452
G1 X158.351 Y118.442 E.01032
G1 X158.549 Y118.623 E.00841
G1 X158.821 Y118.693 E.00881
G1 X164.264 Y118.693 E.17066
G1 X164.52 Y118.631 E.00826
G1 X164.734 Y118.442 E.00896
G1 X164.784 Y118.279 E.00535
M204 S1000
G1 X164.452 Y118.127 F10800
M204 S800
;TYPE:External perimeter
G1 F1200
G1 X164.452 Y116.33 E.05634
G1 X173.25 Y116.33 E.27582
G1 X173.25 Y118.127 E.05634
G1 X173.301 Y118.256 E.00435
G1 X173.438 Y118.316 E.0047
G1 X178.881 Y118.316 E.17066
G1 X179 Y118.273 E.00395
G1 X179.069 Y118.127 E.00509
G1 X179.069 Y116.33 E.05634
G1 X187.867 Y116.33 E.27582
G1 X187.867 Y118.127 E.05634
G1 X187.918 Y118.256 E.00435
G1 X188.055 Y118.316 E.0047
G1 X193.498 Y118.316 E.17066
G1 X193.617 Y118.273 E.00395
G1 X193.686 Y118.127 E.00509
G1 X193.686 Y116.33 E.05634
G1 X202.484 Y116.33 E.27582
G1 X202.484 Y118.127 E.05634
G1 X202.535 Y118.256 E.00435
G1 X202.672 Y118.316 E.0047
G1 X208.115 Y118.316 E.17066
G1 X208.228 Y118.278 E.00374
G1 X208.304 Y118.127 E.00529
G1 X208.304 Y116.33 E.05634
G1 X211.026 Y116.33 E.08536
G1 X211.025 Y138.306 E.68904
G1 X210.972 Y138.379 E.00284
G1 X39.051 Y138.381 E5.39045
G1 X38.979 Y138.338 E.00263
G1 X38.974 Y116.33 E.69006
G1 X41.696 Y116.33 E.08535
G1 X41.696 Y118.127 E.05634
G1 X41.772 Y118.278 E.00529
G1 X41.885 Y118.316 E.00374
G1 X47.328 Y118.316 E.17066
