; generated by PrusaSlicer 2.5.0+win64 on 2023-02-10 at 19:51:59 UTC


;
;
; 

; external perimeters extrusion width = 0.45mm
; perimeters extrusion width = 0.45mm
; infill extrusion width = 0.45mm
; solid infill extrusion width = 0.45mm
; top infill extrusion width = 0.40mm
; first layer extrusion width = 0.42mm

; external perimeters extrusion width = 0.45mm
; perimeters extrusion width = 0.45mm
; infill extrusion width = 0.45mm
; solid infill extrusion width = 0.45mm
; top infill extrusion width = 0.40mm
; first layer extrusion width = 0.42mm

M73 P0 R157
M73 Q0 S159
M201 X1000 Y1000 Z200 E5000 ; sets maximum accelerations, mm/sec^2
M203 X200 Y200 Z12 E120 ; sets maximum feedrates, mm / sec
M204 P1250 R1250 T1250 ; sets acceleration (P, T) and retract acceleration (R), mm/sec^2
M205 X8.00 Y8.00 Z0.40 E4.50 ; sets the jerk limits, mm/sec
M205 S0 T0 ; sets the minimum extruding and travel feed rate, mm/sec
M107
;TYPE:Custom
M862.3 P "MK3S" ; printer model check
M862.1 P0.4 ; nozzle diameter check
M115 U3.11.0 ; tell printer latest fw version
G90 ; use absolute coordinates
M83 ; extruder relative mode
M104 S240 ; set extruder temp
M140 S85 ; set bed temp
M190 S85 ; wait for bed temp
M109 S240 ; wait for extruder temp
G28 W ; home all without mesh bed level
G80 ; mesh bed leveling

G1 Z0.2 F720
G1 Y-3 F1000 ; go outside print area
G92 E0
G1 X60 E9 F1000 ; intro line
G1 X100 E12.5 F1000 ; intro line

G92 E0
M221 S95

; Don't change E values below. Excessive value can damage the printer.
M907 E430 ; set extruder motor current
G21 ; set units to millimeters
G90 ; use absolute coordinates
M83 ; use relative distances for extrusion
M900 K0.08 ; Filament gcode LA 1.5
M900 K45 ; Filament gcode LA 1.0
M107
;LAYER_CHANGE
;Z:0.2
;HEIGHT:0.2
;BEFORE_LAYER_CHANGE
G92 E0.0
;0.2


G1 E-1 F2100
G1 Z.2 F720
;AFTER_LAYER_CHANGE
;0.2
G1 Z.4
G1 X62.656 Y66.493 F10800
G1 Z.2 F720
G1 E1 F2100
M204 S800
;TYPE:Skirt/Brim
;WIDTH:0.42
G1 F1200
G1 X63.702 Y65.617 E.04278
G1 X64.642 Y65.423 E.03008
G1 X120.087 Y65.423 E1.73845
G1 X182.922 Y66.623 E1.9705
G1 X184.221 Y67.04 E.04278
G1 X185.077 Y68.102 E.04278
G1 X185.253 Y69 E.02869
G1 X185.253 Y141 E2.25751
G1 X184.862 Y142.307 E.04278
G1 X183.816 Y143.183 E.04278
G1 X182.922 Y143.377 E.02869
G1 X120.087 Y144.577 E1.9705
G1 X64.642 Y144.577 E1.73845
M73 Q0 S158
G1 X63.335 Y144.185 E.04278
G1 X62.458 Y143.14 E.04278
G1 X62.265 Y142.2 E.03008
G1 X62.265 Y67.8 E2.33276
G1 X62.639 Y66.55 E.0409
M204 S1000
; printing object bottom-part.stl id:1 copy 0
;WIPE_START
G1 F8640
G1 X63.702 Y65.617 E-.32671
G1 X64.642 Y65.423 E-.22155
G1 X66.382 Y65.423 E-.40174
;WIPE_END
G1 E-.05 F2100
G1 Z.4 F720
G1 X177.388 Y136.581 F10800
G1 Z.2 F720
G1 E1 F2100
M204 S800
;TYPE:Perimeter
;WIDTH:0.419999
G1 F1200
G1 X176.965 Y136.549 E.01329
G1 X176.508 Y136.421 E.01488
G1 X176.085 Y136.205 E.01489
G1 X175.713 Y135.91 E.01489
G1 X175.408 Y135.546 E.01489
G1 X175.18 Y135.129 E.01489
G1 X175.039 Y134.676 E.01489
G1 X174.991 Y134.203 E.01489
G1 X175.038 Y133.73 E.01489
G1 X175.177 Y133.276 E.01489
G1 X175.358 Y132.925 E.01239
G1 X175.673 Y132.528 E.01589
G1 X176.08 Y132.198 E.01642
G1 X176.502 Y131.981 E.01489
G1 X176.958 Y131.852 E.01486
G1 X177.409 Y131.814 E.01417
G1 X177.788 Y131.851 E.01194
G1 X178.245 Y131.979 E.01488
G1 X178.668 Y132.195 E.01489
G1 X179.04 Y132.49 E.01489
G1 X179.345 Y132.854 E.01489
G1 X179.573 Y133.271 E.01489
G1 X179.714 Y133.724 E.01489
G1 X179.762 Y134.197 E.01489
G1 X179.715 Y134.67 E.01489
G1 X179.575 Y135.124 E.01489
G1 X179.349 Y135.541 E.01489
G1 X179.044 Y135.905 E.01489
G1 X178.673 Y136.202 E.01489
G1 X178.251 Y136.419 E.01489
G1 X177.794 Y136.548 E.01489
G1 X177.448 Y136.576 E.01088
M204 S1000
G1 X177.336 Y136.207 F10800
M204 S800
;TYPE:External perimeter
G1 F1200
G1 X177.058 Y136.184 E.00875
G1 X176.672 Y136.082 E.01254
G1 X176.313 Y135.905 E.01255
G1 X175.996 Y135.66 E.01255
G1 X175.734 Y135.358 E.01255
G1 X175.537 Y135.009 E.01255
G1 X175.413 Y134.629 E.01255
G1 X175.367 Y134.231 E.01255
G1 X175.401 Y133.833 E.01255
G1 X175.513 Y133.448 E.01255
G1 X175.684 Y133.116 E.01171
G1 X175.951 Y132.784 E.01338
G1 X176.26 Y132.529 E.01255
G1 X176.613 Y132.341 E.01255
G1 X176.996 Y132.227 E.01254
G1 X177.381 Y132.191 E.01213
G1 X177.695 Y132.216 E.00985
G1 X178.081 Y132.318 E.01254
G1 X178.44 Y132.495 E.01255
G1 X178.757 Y132.74 E.01255
G1 X179.019 Y133.042 E.01255
G1 X179.216 Y133.391 E.01255
G1 X179.339 Y133.771 E.01255
G1 X179.385 Y134.169 E.01255
G1 X179.352 Y134.567 E.01255
G1 X179.24 Y134.952 E.01255
G1 X179.054 Y135.306 E.01255
G1 X178.802 Y135.616 E.01255
G1 X178.493 Y135.871 E.01255
G1 X178.14 Y136.059 E.01255
G1 X177.756 Y136.173 E.01255
G1 X177.396 Y136.207 E.01134
M204 S1000
G1 X177.198 Y136.45 F10800
;WIPE_START
G1 F8640
G1 X177.058 Y136.184 E-.07818
G1 X176.672 Y136.082 E-.09233
G1 X176.313 Y135.905 E-.09239
G1 X175.996 Y135.66 E-.09239
G1 X175.734 Y135.358 E-.09239
G1 X175.537 Y135.009 E-.09239
G1 X175.413 Y134.629 E-.09239
G1 X175.367 Y134.231 E-.09239
G1 X175.401 Y133.833 E-.09239
G1 X175.513 Y133.448 E-.09239
G1 X175.593 Y133.293 E-.04037
;WIPE_END
G1 E-.05 F2100
G1 Z.4 F720
G1 X135.017 Y136.554 F10800
G1 Z.2 F720
G1 E1 F2100
M204 S800
;TYPE:Perimeter
G1 F1200
G1 X134.508 Y136.421 E.0165
G1 X134.085 Y136.205 E.01489
G1 X133.713 Y135.91 E.01489
G1 X133.408 Y135.546 E.01489
G1 X133.18 Y135.129 E.01489
G1 X133.039 Y134.676 E.01489
G1 X132.991 Y134.203 E.01489
G1 X133.038 Y133.73 E.01489
G1 X133.177 Y133.276 E.01489
G1 X133.404 Y132.859 E.01489
G1 X133.709 Y132.495 E.01489
G1 X134.08 Y132.198 E.01489
G1 X134.502 Y131.981 E.01489
G1 X134.958 Y131.852 E.01486
G1 X135.409 Y131.814 E.01417
G1 X135.788 Y131.851 E.01194
G1 X136.245 Y131.979 E.01488
G1 X136.668 Y132.195 E.01489
G1 X137.04 Y132.49 E.01489
G1 X137.345 Y132.854 E.01489
G1 X137.573 Y133.271 E.01489
G1 X137.714 Y133.724 E.01489
G1 X137.762 Y134.197 E.01489
G1 X137.715 Y134.67 E.01489
G1 X137.575 Y135.124 E.01489
G1 X137.349 Y135.541 E.01489
G1 X137.044 Y135.905 E.01489
G1 X136.673 Y136.202 E.01489
G1 X136.251 Y136.419 E.01489
G1 X135.794 Y136.548 E.01489
G1 X135.334 Y136.586 E.01445
G1 X135.077 Y136.56 E.00812
M204 S1000
G1 X134.99 Y136.166 F10800
M204 S800
;TYPE:External perimeter
G1 F1200
G1 X134.672 Y136.082 E.01031
G1 X134.313 Y135.905 E.01255
G1 X133.996 Y135.66 E.01255
G1 X133.734 Y135.358 E.01255
G1 X133.537 Y135.009 E.01255
G1 X133.413 Y134.629 E.01255
G1 X133.367 Y134.231 E.01255
G1 X133.401 Y133.833 E.01255
G1 X133.513 Y133.448 E.01255
G1 X133.699 Y133.094 E.01255
G1 X133.951 Y132.784 E.01255
G1 X134.26 Y132.529 E.01255
G1 X134.613 Y132.341 E.01255
G1 X134.996 Y132.227 E.01254
G1 X135.381 Y132.191 E.01213
G1 X135.695 Y132.216 E.00985
G1 X136.081 Y132.318 E.01254
G1 X136.44 Y132.495 E.01255
G1 X136.757 Y132.74 E.01255
G1 X137.019 Y133.042 E.01255
G1 X137.216 Y133.391 E.01255
G1 X137.339 Y133.771 E.01255
G1 X137.385 Y134.169 E.01255
G1 X137.352 Y134.567 E.01255
G1 X137.24 Y134.952 E.01255
G1 X137.054 Y135.306 E.01255
G1 X136.802 Y135.616 E.01255
G1 X136.493 Y135.871 E.01255
G1 X136.14 Y136.059 E.01255
G1 X135.756 Y136.173 E.01255
G1 X135.363 Y136.21 E.01239
G1 X135.048 Y136.181 E.00992
M204 S1000
G1 X134.778 Y136.418 F10800
;WIPE_START
G1 F8640
G1 X134.672 Y136.082 E-.08981
G1 X134.313 Y135.905 E-.09239
G1 X133.996 Y135.66 E-.09239
G1 X133.734 Y135.358 E-.09239
G1 X133.537 Y135.009 E-.09239
G1 X133.413 Y134.629 E-.09239
G1 X133.367 Y134.231 E-.09239
G1 X133.401 Y133.833 E-.09239
G1 X133.513 Y133.448 E-.09239
G1 X133.699 Y133.094 E-.09239
G1 X133.777 Y132.998 E-.02867
;WIPE_END
G1 E-.05 F2100
G1 Z.4 F720
G1 X135.735 Y73.446 F10800
G1 Z.2 F720
G1 E1 F2100
M204 S800
;TYPE:Perimeter
G1 F1200
G1 X136.245 Y73.579 E.01653
G1 X136.668 Y73.795 E.01489
G1 X137.04 Y74.09 E.01489
G1 X137.345 Y74.454 E.01489
G1 X137.573 Y74.871 E.01489
G1 X137.714 Y75.324 E.01489
G1 X137.762 Y75.797 E.01489
G1 X137.715 Y76.27 E.01489
G1 X137.575 Y76.724 E.01489
G1 X137.349 Y77.141 E.01489
G1 X137.044 Y77.505 E.01489
G1 X136.673 Y77.802 E.01489
G1 X136.251 Y78.019 E.01489
G1 X135.853 Y78.139 E.01303
G1 X135.32 Y78.184 E.01676
G1 X134.849 Y78.126 E.01489
G1 X134.398 Y77.975 E.01489
G1 X133.987 Y77.738 E.01489
G1 X133.63 Y77.425 E.01489
G1 X133.35 Y77.059 E.01445
G1 X133.18 Y76.729 E.01164
G1 X133.039 Y76.276 E.01488
G1 X132.991 Y75.803 E.01489
G1 X133.038 Y75.33 E.01489
G1 X133.177 Y74.876 E.01489
G1 X133.404 Y74.459 E.01489
G1 X133.709 Y74.095 E.01489
G1 X134.08 Y73.798 E.01489
G1 X134.502 Y73.581 E.01489
G1 X134.958 Y73.452 E.01486
G1 X135.409 Y73.414 E.01417
G1 X135.675 Y73.44 E.00839
M204 S1000
G1 X135.62 Y73.81 F10800
M204 S800
;TYPE:External perimeter
G1 F1200
G1 X136.081 Y73.918 E.01484
G1 X136.44 Y74.095 E.01255
G1 X136.757 Y74.34 E.01255
G1 X137.019 Y74.642 E.01255
G1 X137.216 Y74.991 E.01255
G1 X137.339 Y75.371 E.01255
G1 X137.385 Y75.769 E.01255
G1 X137.352 Y76.167 E.01255
G1 X137.24 Y76.552 E.01255
G1 X137.054 Y76.906 E.01255
G1 X136.802 Y77.216 E.01255
G1 X136.493 Y77.471 E.01255
G1 X136.14 Y77.659 E.01255
G1 X135.776 Y77.77 E.01193
G1 X135.358 Y77.809 E.01317
G1 X134.96 Y77.766 E.01255
G1 X134.579 Y77.644 E.01255
G1 X134.229 Y77.45 E.01255
G1 X133.925 Y77.189 E.01255
G1 X133.681 Y76.879 E.01239
G1 X133.537 Y76.609 E.00958
G1 X133.413 Y76.229 E.01254
G1 X133.367 Y75.831 E.01255
G1 X133.401 Y75.433 E.01255
G1 X133.513 Y75.048 E.01255
G1 X133.699 Y74.694 E.01255
G1 X133.951 Y74.384 E.01255
G1 X134.26 Y74.129 E.01255
G1 X134.613 Y73.941 E.01255
G1 X134.996 Y73.827 E.01254
G1 X135.381 Y73.791 E.01213
G1 X135.561 Y73.805 E.00564
M204 S1000
G1 X135.868 Y73.496 F10800
;WIPE_START
G1 F8640
G1 X136.081 Y73.918 E-.12302
G1 X136.44 Y74.095 E-.09239
G1 X136.757 Y74.34 E-.09239
G1 X137.019 Y74.642 E-.0924
G1 X137.216 Y74.991 E-.09239
G1 X137.339 Y75.371 E-.09239
G1 X137.385 Y75.769 E-.09239
G1 X137.352 Y76.167 E-.09239
G1 X137.24 Y76.552 E-.09239
G1 X137.063 Y76.888 E-.08785
;WIPE_END
G1 E-.05 F2100
G1 Z.4 F720
G1 X177.735 Y73.446 F10800
G1 Z.2 F720
G1 E1 F2100
M204 S800
;TYPE:Perimeter
G1 F1200
G1 X178.245 Y73.579 E.01653
G1 X178.668 Y73.795 E.01489
G1 X179.04 Y74.09 E.01489
G1 X179.345 Y74.454 E.01489
G1 X179.573 Y74.871 E.01489
G1 X179.714 Y75.324 E.01489
G1 X179.762 Y75.797 E.01489
G1 X179.715 Y76.27 E.01489
G1 X179.575 Y76.724 E.01489
G1 X179.349 Y77.141 E.01489
G1 X179.044 Y77.505 E.01489
G1 X178.673 Y77.802 E.01489
G1 X178.251 Y78.019 E.01489
G1 X177.794 Y78.148 E.01489
G1 X177.32 Y78.184 E.01489
G1 X176.849 Y78.126 E.01489
G1 X176.398 Y77.975 E.01489
G1 X175.987 Y77.738 E.01489
G1 X175.63 Y77.425 E.01489
G1 X175.35 Y77.059 E.01445
G1 X175.18 Y76.729 E.01164
G1 X175.039 Y76.276 E.01488
G1 X174.991 Y75.803 E.01489
G1 X175.038 Y75.33 E.01489
G1 X175.177 Y74.876 E.01489
G1 X175.404 Y74.459 E.01489
G1 X175.709 Y74.095 E.01489
G1 X176.08 Y73.798 E.01489
G1 X176.502 Y73.581 E.01489
G1 X176.958 Y73.452 E.01486
G1 X177.409 Y73.414 E.01417
G1 X177.675 Y73.44 E.00839
M204 S1000
G1 X177.619 Y73.81 F10800
M204 S800
;TYPE:External perimeter
G1 F1200
G1 X178.081 Y73.918 E.01487
G1 X178.44 Y74.095 E.01255
G1 X178.757 Y74.34 E.01255
G1 X179.019 Y74.642 E.01255
G1 X179.216 Y74.991 E.01255
G1 X179.339 Y75.371 E.01255
G1 X179.385 Y75.769 E.01255
G1 X179.352 Y76.167 E.01255
G1 X179.24 Y76.552 E.01255
G1 X179.054 Y76.906 E.01255
G1 X178.802 Y77.216 E.01255
G1 X178.493 Y77.471 E.01255
G1 X178.14 Y77.659 E.01255
G1 X177.756 Y77.773 E.01255
G1 X177.358 Y77.809 E.01255
G1 X176.96 Y77.766 E.01255
G1 X176.579 Y77.644 E.01255
G1 X176.229 Y77.45 E.01255
G1 X175.925 Y77.189 E.01255
G1 X175.681 Y76.879 E.01239
G1 X175.537 Y76.609 E.00958
G1 X175.413 Y76.229 E.01254
G1 X175.367 Y75.831 E.01255
G1 X175.401 Y75.433 E.01255
G1 X175.513 Y75.048 E.01255
G1 X175.699 Y74.694 E.01255
G1 X175.951 Y74.384 E.01255
G1 X176.26 Y74.129 E.01255
G1 X176.613 Y73.941 E.01255
G1 X176.996 Y73.827 E.01254
G1 X177.381 Y73.791 E.01213
G1 X177.56 Y73.805 E.00561
M204 S1000
G1 X177.867 Y73.496 F10800
;WIPE_START
G1 F8640
G1 X178.081 Y73.918 E-.12324
G1 X178.44 Y74.095 E-.09239
G1 X178.757 Y74.34 E-.09239
G1 X179.019 Y74.642 E-.0924
G1 X179.216 Y74.991 E-.09239
G1 X179.339 Y75.371 E-.09239
G1 X179.385 Y75.769 E-.09239
G1 X179.352 Y76.167 E-.09239
G1 X179.24 Y76.552 E-.09239
G1 X179.064 Y76.888 E-.08763
;WIPE_END
G1 E-.05 F2100
G1 Z.4 F720
G1 X182.089 Y140.213 F10800
G1 Z.2 F720
G1 E1 F2100
M204 S800
;TYPE:Perimeter
G1 F1200
G1 X130.663 Y140.213 E1.61242
G1 X130.663 Y69.787 E2.20815
G1 X182.089 Y69.787 E1.61242
M73 P0 R156
G1 X182.089 Y140.153 E2.20627
M204 S1000
G1 X182.466 Y140.59 F10800
M204 S800
;TYPE:External perimeter
G1 F1200
G1 X130.286 Y140.59 E1.63606
G1 X130.286 Y69.41 E2.2318
G1 X182.466 Y69.41 E1.63606
G1 X182.466 Y140.53 E2.22991
M204 S1000
G1 X182.086 Y140.467 F10800
;WIPE_START
G1 F8640
G1 X178.352 Y140.535 E-.95
;WIPE_END
G1 E-.05 F2100
G1 Z.4 F720
G1 X181.211 Y69.9 F10800
G1 Z.2 F720
G1 E1 F2100
M204 S800
;TYPE:Solid infill
;WIDTH:0.421314
G1 F1200
G1 X181.807 Y70.496 E.02649
G1 X181.807 Y71.031 E.01684
G1 X180.846 Y70.07 E.04275
G1 X180.311 Y70.07 E.01684
G1 X181.807 Y71.566 E.06656
G1 X181.807 Y72.101 E.01684
G1 X179.775 Y70.07 E.09038
G1 X179.24 Y70.07 E.01684
G1 X181.807 Y72.636 E.11419
G1 X181.807 Y73.171 E.01684
G1 X178.705 Y70.07 E.138
G1 X178.17 Y70.07 E.01684
G1 X181.807 Y73.706 E.16181
G1 X181.807 Y74.241 E.01684
G1 X177.635 Y70.07 E.18562
G1 X177.1 Y70.07 E.01684
G1 X181.807 Y74.777 E.20943
G1 X181.807 Y75.312 E.01684
G1 X176.565 Y70.07 E.23324
G1 X176.03 Y70.07 E.01684
G1 X181.807 Y75.847 E.25705
G1 X181.807 Y76.382 E.01684
G1 X175.494 Y70.07 E.28087
G1 X174.959 Y70.07 E.01684
G1 X178.149 Y73.26 E.14195
G1 X178.361 Y73.321 E.00693
G1 X178.807 Y73.546 E.01572
G1 X179.247 Y73.898 E.01773
G1 X179.587 Y74.307 E.01672
G1 X179.839 Y74.774 E.01672
G1 X179.916 Y75.026 E.00829
G1 X181.807 Y76.917 E.08413
G1 X181.807 Y77.452 E.01684
G1 X180.039 Y75.684 E.07867
G1 X180.012 Y76.193 E.01602
G1 X181.807 Y77.987 E.07985
G1 X181.807 Y78.523 E.01684
G1 X179.908 Y76.624 E.08447
G1 X179.746 Y76.997 E.0128
G1 X181.807 Y79.058 E.09167
G1 X181.807 Y79.593 E.01684
G1 X179.546 Y77.332 E.1006
G1 X179.311 Y77.632 E.01199
G1 X181.807 Y80.128 E.11105
G1 X181.807 Y80.663 E.01684
G1 X179.028 Y77.884 E.12365
G1 X178.943 Y77.959 E.00357
G1 X178.706 Y78.098 E.00863
G1 X181.807 Y81.198 E.13796
G1 X181.807 Y81.733 E.01684
G1 X178.347 Y78.274 E.15394
G1 X177.942 Y78.404 E.01339
G1 X181.807 Y82.268 E.17197
G1 X181.807 Y82.804 E.01684
G1 X177.468 Y78.465 E.19305
G1 X176.888 Y78.421 E.01829
G1 X181.976 Y83.508 E.22639
M204 S1000
;WIPE_START
G1 F8640
G1 X179.067 Y80.599 E-.95
;WIPE_END
G1 E-.05 F2100
G1 Z.4 F720
G1 X174.254 Y69.9 F10800
G1 Z.2 F720
G1 E1 F2100
M204 S800
G1 F1200
G1 X177.504 Y73.149 E.14457
G1 X177.29 Y73.134 E.00674
G1 X176.985 Y73.166 E.00964
G1 X173.889 Y70.07 E.13777
G1 X173.354 Y70.07 E.01684
G1 X176.555 Y73.271 E.14242
G1 X176.415 Y73.312 E.00459
G1 X176.176 Y73.427 E.00834
G1 X172.819 Y70.07 E.14938
G1 X172.284 Y70.07 E.01684
G1 X175.838 Y73.624 E.15815
G1 X175.55 Y73.872 E.01194
G1 X171.748 Y70.07 E.16916
G1 X171.213 Y70.07 E.01684
G1 X175.295 Y74.151 E.18161
G1 X175.072 Y74.464 E.01207
G1 X170.678 Y70.07 E.19552
G1 X170.143 Y70.07 E.01684
G1 X174.9 Y74.826 E.21165
G1 X174.866 Y74.898 E.0025
G1 X174.78 Y75.242 E.01114
G1 X169.608 Y70.07 E.23012
G1 X169.073 Y70.07 E.01684
G1 X174.717 Y75.714 E.25115
G1 X174.707 Y75.871 E.00494
G1 X174.76 Y76.293 E.01337
G1 X168.538 Y70.07 E.27689
G1 X168.003 Y70.07 E.01684
G1 X181.807 Y83.874 E.61422
G1 X181.807 Y84.409 E.01684
G1 X167.467 Y70.07 E.63803
G1 X166.932 Y70.07 E.01684
G1 X181.807 Y84.944 E.66185
G1 X181.807 Y85.479 E.01684
G1 X166.397 Y70.07 E.68566
G1 X165.862 Y70.07 E.01684
G1 X181.807 Y86.014 E.70947
G1 X181.807 Y86.549 E.01684
M73 Q0 S157
G1 X165.327 Y70.07 E.73328
G1 X164.792 Y70.07 E.01684
G1 X181.807 Y87.085 E.75709
G1 X181.807 Y87.62 E.01684
G1 X164.257 Y70.07 E.7809
G1 X163.722 Y70.07 E.01684
G1 X181.807 Y88.155 E.80471
G1 X181.807 Y88.69 E.01684
G1 X163.186 Y70.07 E.82852
G1 X162.651 Y70.07 E.01684
G1 X181.807 Y89.225 E.85234
G1 X181.807 Y89.76 E.01684
G1 X162.116 Y70.07 E.87615
G1 X161.581 Y70.07 E.01684
