; generated by PrusaSlicer 2.4.1+win64 on 2022-04-14 at 08:45:43 UTC

; 

; external perimeters extrusion width = 0.45mm
; perimeters extrusion width = 0.45mm
; infill extrusion width = 0.45mm
; solid infill extrusion width = 0.45mm
; top infill extrusion width = 0.40mm
; first layer extrusion width = 0.42mm

; external perimeters extrusion width = 0.45mm
; perimeters extrusion width = 0.45mm
; infill extrusion width = 0.45mm
; solid infill extrusion width = 0.45mm
; top infill extrusion width = 0.40mm
; first layer extrusion width = 0.42mm

; external perimeters extrusion width = 0.45mm
; perimeters extrusion width = 0.45mm
; infill extrusion width = 0.45mm
; solid infill extrusion width = 0.45mm
; top infill extrusion width = 0.40mm
; first layer extrusion width = 0.42mm

; external perimeters extrusion width = 0.45mm
; perimeters extrusion width = 0.45mm
; infill extrusion width = 0.45mm
; solid infill extrusion width = 0.45mm
; top infill extrusion width = 0.40mm
; first layer extrusion width = 0.42mm

; external perimeters extrusion width = 0.45mm
; perimeters extrusion width = 0.45mm
; infill extrusion width = 0.45mm
; solid infill extrusion width = 0.45mm
; top infill extrusion width = 0.40mm
; first layer extrusion width = 0.42mm

; external perimeters extrusion width = 0.45mm
; perimeters extrusion width = 0.45mm
; infill extrusion width = 0.45mm
; solid infill extrusion width = 0.45mm
; top infill extrusion width = 0.40mm
; first layer extrusion width = 0.42mm

M73 P0 R49
M73 Q0 S50
M107
;TYPE:Custom
M862.3 P "MK3SMMU2S" ; printer model check
M862.1 P0.4 ; nozzle diameter check
M115 U3.9.3 ; tell printer latest fw version
G90 ; use absolute coordinates
M83 ; extruder relative mode
M104 S240 ; set extruder temp
M140 S85 ; set bed temp
Tx
M190 S85 ; wait for bed temp
M109 S240 ; wait for extruder temp
G28 W ; home all without mesh bed level
G80 ; mesh bed leveling

;go outside print area
G1 Y-3.0 F1000.0
G1 Z0.4 F1000.0
; select extruder
Tc
; purge line
G1 X55.0 F2000.0
G1 Z0.3 F1000.0
G92 E0.0
G1 X240.0 E25.0 F2200.0
G1 Y-2.0 F1000.0
G1 X55.0 E25 F1400.0
G1 Z0.20 F1000.0
G1 X5.0 E4.0 F1000.0

M221 S95
G92 E0.0

; Don't change E values below. Excessive value can damage the printer.
M907 E430 ; set extruder motor current
G21 ; set units to millimeters
G90 ; use absolute coordinates
M83 ; use relative distances for extrusion
M900 K0.08 ; Filament gcode LA 1.5
M900 K45 ; Filament gcode LA 1.0
M107
;LAYER_CHANGE
;Z:0.2
;HEIGHT:0.2
;BEFORE_LAYER_CHANGE
G92 E0.0
;0.2


G1 E-1.4 F2100
G1 Z.2 F10800
;AFTER_LAYER_CHANGE
;0.2
G1 Z.4
G1 X95.394 Y99.473
G1 Z.2
M73 Q0 S49
G1 E1.4 F2100
M204 S1000
;TYPE:Skirt/Brim
;WIDTH:0.42
G1 F1200
G1 X96.636 Y98.634 E.04699
G1 X98.043 Y98.062 E.04763
M73 P0 R48
G1 X99.529 Y97.799 E.04731
G1 X170.135 Y97.799 E2.21377
G1 X170.629 Y97.851 E.01558
G1 X171.621 Y98.062 E.03179
G1 X173.013 Y98.625 E.0471
G1 X174.27 Y99.473 E.04753
G1 X174.639 Y99.805 E.01558
G1 X175.604 Y100.953 E.04699
G1 X176.319 Y102.293 E.04763
G1 X176.632 Y103.257 E.03179
G1 X176.842 Y104.752 E.04731
G1 X176.736 Y106.257 E.04731
G1 X176.319 Y107.707 E.04731
G1 X175.61 Y109.039 E.04732
G1 X175.318 Y109.441 E.01558
G1 X174.302 Y110.504 E.0461
G1 X147.644 Y130.553 E1.04583
G1 X146.789 Y131.036 E.0308
G1 X146.256 Y131.239 E.01788
G1 X145.114 Y131.452 E.03643
G1 X115.311 Y130.204 E.93528
G1 X114.259 Y129.993 E.03365
G1 X113.723 Y129.79 E.01797
G1 X112.718 Y129.184 E.0368
G1 X112.099 Y128.621 E.02623
G1 X94.346 Y109.441 E.81945
G1 X94.054 Y109.039 E.01558
G1 X93.345 Y107.707 E.04731
G1 X93.032 Y106.743 E.03179
G1 X92.822 Y105.248 E.04731
G1 X92.967 Y103.504 E.05487
G1 X93.345 Y102.293 E.0398
G1 X94.051 Y100.967 E.0471
G1 X94.351 Y100.553 E.01602
G1 X95.352 Y99.516 E.04521
; printing object distance-columns-led-10mm-14.5mm.stl id:2 copy 0
;WIPE_START
G1 F8640
G1 X96.636 Y98.634 E-.35962
G1 X98.043 Y98.062 E-.35079
G1 X99.529 Y97.799 E-.34844
G1 X100.704 Y97.799 E-.27114
;WIPE_END
G1 E-.07 F2100
G1 Z.4 F10800
G1 X169.628 Y105.551
G1 Z.2
M73 P1 R48
M73 Q1 S49
G1 E1.4 F2100
;TYPE:Perimeter
G1 F1200
G1 X169.591 Y105.647 E.00324
G1 X169.4 Y105.924 E.01053
G1 X169.149 Y106.146 E.01053
G1 X168.852 Y106.302 E.01053
G1 X168.526 Y106.383 E.01053
G1 X168.19 Y106.383 E.01053
G1 X167.864 Y106.302 E.01053
G1 X167.566 Y106.146 E.01053
G1 X167.315 Y105.924 E.01053
G1 X167.124 Y105.647 E.01053
G1 X167.005 Y105.333 E.01053
G1 X166.965 Y105 E.01053
G1 X167.005 Y104.667 E.01053
G1 X167.124 Y104.353 E.01053
G1 X167.315 Y104.076 E.01053
G1 X167.566 Y103.854 E.01053
G1 X167.864 Y103.698 E.01053
G1 X168.19 Y103.617 E.01053
G1 X168.526 Y103.617 E.01053
G1 X168.852 Y103.698 E.01053
G1 X169.149 Y103.854 E.01053
G1 X169.4 Y104.076 E.01053
G1 X169.591 Y104.353 E.01053
G1 X169.628 Y104.449 E.00324
G1 X169.664 Y104.353 E.00324
G1 X169.855 Y104.076 E.01053
G1 X170.106 Y103.854 E.01053
G1 X170.404 Y103.698 E.01053
G1 X170.73 Y103.617 E.01053
G1 X171.066 Y103.617 E.01053
G1 X171.392 Y103.698 E.01053
G1 X171.689 Y103.854 E.01053
G1 X171.94 Y104.076 E.01053
G1 X172.131 Y104.353 E.01053
G1 X172.25 Y104.667 E.01053
G1 X172.29 Y105 E.01053
G1 X172.25 Y105.333 E.01053
G1 X172.131 Y105.647 E.01053
G1 X171.94 Y105.924 E.01053
G1 X171.689 Y106.146 E.01053
G1 X171.392 Y106.302 E.01053
G1 X171.066 Y106.383 E.01053
G1 X170.73 Y106.383 E.01053
G1 X170.404 Y106.302 E.01053
G1 X170.106 Y106.146 E.01053
G1 X169.855 Y105.924 E.01053
G1 X169.649 Y105.607 E.01186
G1 X169.885 Y105 F10800
;TYPE:External perimeter
G1 F1200
G1 X169.914 Y104.758 E.00766
G1 X170.001 Y104.529 E.00766
G1 X170.139 Y104.328 E.00766
G1 X170.322 Y104.166 E.00766
G1 X170.538 Y104.053 E.00766
G1 X170.776 Y103.994 E.00766
G1 X171.02 Y103.994 E.00766
G1 X171.257 Y104.053 E.00766
G1 X171.473 Y104.166 E.00766
G1 X171.656 Y104.328 E.00766
G1 X171.795 Y104.529 E.00766
G1 X171.881 Y104.758 E.00766
G1 X171.911 Y105 E.00766
G1 X171.881 Y105.242 E.00766
G1 X171.795 Y105.471 E.00766
G1 X171.656 Y105.672 E.00766
G1 X171.473 Y105.834 E.00766
G1 X171.257 Y105.947 E.00766
G1 X171.02 Y106.006 E.00766
G1 X170.776 Y106.006 E.00766
G1 X170.538 Y105.947 E.00766
G1 X170.322 Y105.834 E.00766
G1 X170.139 Y105.672 E.00766
G1 X170.001 Y105.471 E.00766
G1 X169.914 Y105.242 E.00766
G1 X169.892 Y105.06 E.00578
G1 X169.673 Y104.878 F10800
G1 X169.371 Y105
G1 F1200
G1 X169.341 Y105.242 E.00766
G1 X169.255 Y105.471 E.00766
G1 X169.116 Y105.672 E.00766
G1 X168.933 Y105.834 E.00766
G1 X168.717 Y105.947 E.00766
G1 X168.48 Y106.006 E.00766
G1 X168.236 Y106.006 E.00766
G1 X167.998 Y105.947 E.00766
G1 X167.782 Y105.834 E.00766
G1 X167.599 Y105.672 E.00766
G1 X167.461 Y105.471 E.00766
G1 X167.374 Y105.242 E.00766
G1 X167.345 Y105 E.00766
G1 X167.374 Y104.758 E.00766
G1 X167.461 Y104.529 E.00766
G1 X167.599 Y104.328 E.00766
G1 X167.782 Y104.166 E.00766
G1 X167.998 Y104.053 E.00766
G1 X168.236 Y103.994 E.00766
G1 X168.48 Y103.994 E.00766
G1 X168.717 Y104.053 E.00766
G1 X168.933 Y104.166 E.00766
G1 X169.116 Y104.328 E.00766
G1 X169.255 Y104.529 E.00766
G1 X169.341 Y104.758 E.00766
G1 X169.363 Y104.94 E.00578
G1 X169.582 Y105.122 F10800
;WIPE_START
G1 F8640
G1 X169.341 Y105.242 E-.06992
G1 X169.255 Y105.471 E-.05639
G1 X169.116 Y105.672 E-.05639
G1 X168.933 Y105.834 E-.05639
G1 X168.717 Y105.947 E-.05639
G1 X168.48 Y106.006 E-.05639
G1 X168.236 Y106.006 E-.05639
G1 X167.998 Y105.947 E-.05639
G1 X167.782 Y105.834 E-.05639
G1 X167.599 Y105.672 E-.05639
G1 X167.461 Y105.471 E-.05639
G1 X167.374 Y105.242 E-.05639
G1 X167.345 Y105 E-.05639
G1 X167.374 Y104.758 E-.05639
G1 X167.461 Y104.529 E-.05639
G1 X167.599 Y104.328 E-.05639
G1 X167.782 Y104.166 E-.05639
G1 X167.998 Y104.053 E-.05639
G1 X168.236 Y103.994 E-.05639
G1 X168.48 Y103.994 E-.05639
G1 X168.717 Y104.053 E-.05639
G1 X168.933 Y104.166 E-.05639
G1 X169.116 Y104.328 E-.05639
G1 X169.164 Y104.398 E-.01953
;WIPE_END
G1 E-.07 F2100
G1 Z.4 F10800
G1 X165.569 Y105
G1 Z.2
G1 E1.4 F2100
;TYPE:Perimeter
G1 F1200
G1 X165.658 Y104.156 E.0266
G1 X165.92 Y103.349 E.0266
G1 X166.344 Y102.614 E.0266
G1 X166.912 Y101.984 E.0266
G1 X167.598 Y101.485 E.0266
G1 X168.373 Y101.14 E.0266
G1 X169.203 Y100.964 E.0266
G1 X170.052 Y100.964 E.0266
G1 X170.882 Y101.14 E.0266
G1 X171.657 Y101.485 E.0266
G1 X172.343 Y101.984 E.0266
G1 X172.911 Y102.614 E.0266
G1 X173.335 Y103.349 E.0266
G1 X173.598 Y104.156 E.0266
G1 X173.686 Y105 E.0266
G1 X173.598 Y105.844 E.0266
G1 X173.335 Y106.651 E.0266
G1 X172.911 Y107.386 E.0266
G1 X172.343 Y108.016 E.0266
G1 X171.657 Y108.515 E.0266
G1 X170.882 Y108.86 E.0266
G1 X170.052 Y109.036 E.0266
G1 X169.203 Y109.036 E.0266
G1 X168.373 Y108.86 E.0266
G1 X167.598 Y108.515 E.0266
G1 X166.912 Y108.016 E.0266
G1 X166.344 Y107.386 E.0266
G1 X165.92 Y106.651 E.0266
G1 X165.658 Y105.844 E.0266
G1 X165.575 Y105.06 E.02472
G1 X165.19 Y105 F10800
;TYPE:External perimeter
G1 F1200
G1 X165.287 Y104.077 E.02909
G1 X165.574 Y103.195 E.02909
G1 X166.037 Y102.392 E.02909
G1 X166.658 Y101.702 E.02909
G1 X167.409 Y101.157 E.02909
G1 X168.256 Y100.779 E.02909
G1 X169.164 Y100.587 E.02909
G1 X170.092 Y100.587 E.02909
G1 X170.999 Y100.779 E.02909
G1 X171.847 Y101.157 E.02909
G1 X172.597 Y101.702 E.02909
G1 X173.218 Y102.392 E.02909
G1 X173.682 Y103.195 E.02909
G1 X173.968 Y104.077 E.02909
G1 X174.065 Y105 E.02909
G1 X173.968 Y105.923 E.02909
G1 X173.682 Y106.805 E.02909
G1 X173.218 Y107.608 E.02909
G1 X172.597 Y108.298 E.02909
G1 X171.847 Y108.843 E.02909
G1 X170.999 Y109.221 E.02909
G1 X170.092 Y109.413 E.02909
G1 X169.164 Y109.413 E.02909
G1 X168.256 Y109.221 E.02909
G1 X167.409 Y108.843 E.02909
G1 X166.658 Y108.298 E.02909
G1 X166.037 Y107.608 E.02909
G1 X165.574 Y106.805 E.02909
G1 X165.287 Y105.923 E.02909
G1 X165.196 Y105.06 E.02721
G1 X165.536 Y104.8 F10800
;WIPE_START
G1 F8640
G1 X165.287 Y104.077 E-.22779
G1 X165.574 Y103.195 E-.21422
G1 X166.037 Y102.392 E-.21422
G1 X166.658 Y101.702 E-.21422
G1 X167.409 Y101.157 E-.21422
G1 X168.256 Y100.779 E-.21422
G1 X168.388 Y100.751 E-.03112
;WIPE_END
G1 E-.07 F2100
G1 Z.4 F10800
G1 X169.597 Y105
G1 Z.2
G1 E1.4 F2100
;TYPE:Gap fill
;WIDTH:0.115283
G1 F1200
G1 X169.659 Y105 E.00037
;WIPE_START
G1 F8640
G1 X169.597 Y105 E-.01426
;WIPE_END
G1 E-1.38574 F2100
G1 Z.4 F10800
G1 X171.473 Y101.527
G1 Z.2
G1 E1.4 F2100
;TYPE:Solid infill
;WIDTH:0.438757
G1 F1200
G1 X172.264 Y102.318 E.03683
G1 X172.681 Y102.782 E.02053
G1 X173.076 Y103.465 E.02597
G1 X173.184 Y103.798 E.01153
G1 X170.798 Y101.412 E.11104
G1 X170.086 Y101.26 E.02397
G1 X173.352 Y104.526 E.15202
G1 X173.402 Y105 E.01569
G1 X173.389 Y105.123 E.00406
G1 X169.513 Y101.246 E.18043
G1 X169.233 Y101.246 E.0092
G1 X169.002 Y101.296 E.00778
G1 X171.041 Y103.334 E.09491
G1 X171.493 Y103.431 E.0152
G1 X171.851 Y103.619 E.01331
G1 X172.153 Y103.887 E.01331
G1 X172.383 Y104.22 E.01331
G1 X172.527 Y104.598 E.01331
G1 X172.557 Y104.851 E.00837
G1 X173.49 Y105.784 E.04342
;WIPE_START
G1 F8640
G1 X172.557 Y104.851 E-.30462
G1 X172.527 Y104.598 E-.05868
G1 X172.383 Y104.22 E-.09339
G1 X172.153 Y103.887 E-.09339
G1 X171.851 Y103.619 E-.09339
G1 X171.493 Y103.431 E-.09339
G1 X171.041 Y103.334 E-.10665
G1 X169.551 Y101.845 E-.48648
;WIPE_END
G1 E-.07 F2100
G1 Z.4 F10800
G1 X172.377 Y105.23
G1 Z.2
G1 E1.4 F2100
G1 F1200
G1 X173.224 Y106.078 E.03946
G1 X173.087 Y106.5 E.01462
G1 X172.376 Y105.79 E.03307
G1 X172.146 Y106.119 E.01323
G1 X172.888 Y106.861 E.03452
G1 X172.683 Y107.215 E.01349
G1 X171.849 Y106.382 E.03881
G1 X171.479 Y106.572 E.01368
G1 X172.418 Y107.511 E.04369
G1 X172.153 Y107.805 E.01305
G1 X171.013 Y106.666 E.05304
G1 X170.695 Y106.666 E.01046
G1 X170.374 Y106.586 E.01089
G1 X171.828 Y108.041 E.06769
G1 X171.502 Y108.274 E.01321
G1 X169.469 Y106.241 E.09465
G1 X169.311 Y106.381 E.00695
G1 X169.139 Y106.471 E.00638
G1 X171.115 Y108.447 E.09197
G1 X170.794 Y108.59 E.01156
G1 X170.715 Y108.606 E.00266
G1 X168.591 Y106.483 E.09884
;WIPE_START
G1 F8640
G1 X170.715 Y108.606 E-.69338
G1 X170.794 Y108.59 E-.01868
G1 X171.115 Y108.447 E-.08112
G1 X169.471 Y106.803 E-.53682
;WIPE_END
G1 E-.07 F2100
G1 Z.4 F10800
G1 X170.664 Y103.517
G1 Z.2
G1 E1.4 F2100
G1 F1200
G1 X168.54 Y101.394 E.09884
G1 X168.461 Y101.41 E.00266
G1 X168.14 Y101.553 E.01157
G1 X170.116 Y103.529 E.09197
G1 X169.945 Y103.619 E.00638
G1 X169.786 Y103.759 E.00695
G1 X167.753 Y101.726 E.09465
G1 X167.427 Y101.959 E.01321
G1 X168.881 Y103.414 E.06769
G1 X168.56 Y103.334 E.01088
G1 X168.242 Y103.334 E.01046
G1 X167.102 Y102.195 E.05304
G1 X166.837 Y102.49 E.01305
G1 X167.776 Y103.428 E.04369
G1 X167.406 Y103.618 E.01368
G1 X166.572 Y102.785 E.03881
G1 X166.368 Y103.139 E.01349
G1 X167.109 Y103.881 E.03452
G1 X166.879 Y104.211 E.01323
G1 X166.168 Y103.5 E.03307
G1 X166.031 Y103.923 E.01462
G1 X166.879 Y104.77 E.03946
;WIPE_START
G1 F8640
G1 X166.031 Y103.923 E-.27682
G1 X166.168 Y103.5 E-.10258
G1 X166.879 Y104.211 E-.23202
G1 X167.109 Y103.881 E-.09283
G1 X166.368 Y103.139 E-.24214
G1 X166.572 Y102.785 E-.09462
G1 X167.406 Y103.618 E-.27227
G1 X167.471 Y103.585 E-.01672
;WIPE_END
G1 E-.07 F2100
G1 Z.4 F10800
G1 X165.765 Y104.216
G1 Z.2
G1 E1.4 F2100
G1 F1200
G1 X166.698 Y105.149 E.04342
G1 X166.729 Y105.402 E.00836
G1 X166.872 Y105.78 E.01331
G1 X167.102 Y106.113 E.01331
G1 X167.405 Y106.381 E.01331
G1 X167.763 Y106.569 E.01331
G1 X168.214 Y106.666 E.0152
G1 X170.253 Y108.704 E.09491
G1 X170.022 Y108.754 E.00777
G1 X169.742 Y108.754 E.00921
G1 X165.866 Y104.877 E.18042
G1 X165.853 Y105 E.00406
G1 X165.903 Y105.474 E.01569
G1 X169.169 Y108.74 E.15201
G1 X168.457 Y108.587 E.02397
G1 X166.072 Y106.202 E.11103
G1 X166.18 Y106.535 E.01152
G1 X166.574 Y107.218 E.02597
G1 X166.993 Y107.683 E.02059
G1 X167.783 Y108.473 E.03676
; stop printing object distance-columns-led-10mm-14.5mm.stl id:2 copy 0
; printing object distance-columns-led-5mm-19.53mm.stl id:5 copy 0
;WIPE_START
G1 F8640
G1 X166.993 Y107.683 E-.2579
G1 X166.574 Y107.218 E-.14441
G1 X166.18 Y106.535 E-.18219
G1 X166.072 Y106.202 E-.08081
G1 X168.107 Y108.238 E-.66468
;WIPE_END
G1 E-.07 F2100
G1 Z.4 F10800
G1 X144.795 Y127.129
G1 Z.2
G1 E1.4 F2100
;TYPE:Perimeter
;WIDTH:0.42
G1 F1200
G1 X144.845 Y127.253 E.00419
G1 X145.054 Y127.535 E.01101
G1 X145.333 Y127.747 E.01097
G1 X145.655 Y127.878 E.01091
G1 X145.907 Y127.903 E.00794
G1 X145.793 Y127.991 E.00452
G1 X145.403 Y128.191 E.01373
G1 X145.001 Y128.29 E.01299
G1 X144.589 Y128.29 E.01291
G1 X144.187 Y128.191 E.01299
G1 X143.798 Y127.991 E.01373
G1 X143.683 Y127.903 E.00452
G1 X143.935 Y127.878 E.00794
G1 X144.258 Y127.747 E.01091
G1 X144.536 Y127.535 E.01097
G1 X144.746 Y127.253 E.01101
G1 X144.773 Y127.185 E.0023
G1 X145.177 Y127.068 F10800
;TYPE:External perimeter
G1 F1200
G1 X145.086 Y126.839 E.00771
G1 X145.054 Y126.596 E.00771
G1 X145.086 Y126.352 E.00771
G1 X145.177 Y126.123 E.00771
G1 X145.325 Y125.924 E.00778
G1 X145.521 Y125.775 E.00773
G1 X145.747 Y125.683 E.00763
G1 X145.985 Y125.66 E.00752
G1 X146.223 Y125.701 E.00758
G1 X146.424 Y125.819 E.00729
G1 X146.675 Y126.061 E.01094
G1 X146.784 Y126.218 E.006
G1 X146.853 Y126.401 E.00613
G1 X146.877 Y126.596 E.00613
G1 X146.853 Y126.79 E.00613
G1 X146.784 Y126.973 E.00613
G1 X146.675 Y127.13 E.006
G1 X146.424 Y127.372 E.01094
G1 X146.223 Y127.49 E.00729
G1 X145.985 Y127.531 E.00758
G1 X145.747 Y127.508 E.00752
G1 X145.521 Y127.416 E.00763
G1 X145.325 Y127.267 E.00773
G1 X145.213 Y127.116 E.0059
G1 X144.931 Y127.065 F10800
;WIPE_START
G1 F8640
G1 X145.086 Y126.839 E-.07024
G1 X145.054 Y126.596 E-.05678
G1 X145.086 Y126.352 E-.05678
G1 X145.177 Y126.123 E-.05677
G1 X145.325 Y125.924 E-.05731
G1 X145.521 Y125.775 E-.05689
G1 X145.747 Y125.683 E-.05621
G1 X145.985 Y125.66 E-.0554
G1 X146.223 Y125.701 E-.05581
G1 X146.424 Y125.819 E-.05366
G1 X146.675 Y126.061 E-.08055
G1 X146.784 Y126.218 E-.04419
G1 X146.853 Y126.401 E-.04518
G1 X146.877 Y126.596 E-.04517
G1 X146.853 Y126.79 E-.04517
G1 X146.784 Y126.973 E-.04518
G1 X146.675 Y127.13 E-.04419
G1 X146.424 Y127.372 E-.08055
G1 X146.223 Y127.49 E-.05366
G1 X145.985 Y127.531 E-.05581
G1 X145.747 Y127.508 E-.05539
G1 X145.521 Y127.416 E-.05621
G1 X145.325 Y127.267 E-.05689
G1 X145.213 Y127.116 E-.04346
;WIPE_END
G1 E-.07255 F2100
