; generated by PrusaSlicer 2.4.1+win64 on 2022-05-08 at 07:20:22 UTC

; 

; external perimeters extrusion width = 0.45mm
; perimeters extrusion width = 0.45mm
; infill extrusion width = 0.45mm
; solid infill extrusion width = 0.45mm
; top infill extrusion width = 0.40mm
; first layer extrusion width = 0.42mm

; external perimeters extrusion width = 0.45mm
; perimeters extrusion width = 0.45mm
; infill extrusion width = 0.45mm
; solid infill extrusion width = 0.45mm
; top infill extrusion width = 0.40mm
; first layer extrusion width = 0.42mm

; external perimeters extrusion width = 0.45mm
; perimeters extrusion width = 0.45mm
; infill extrusion width = 0.45mm
; solid infill extrusion width = 0.45mm
; top infill extrusion width = 0.40mm
; first layer extrusion width = 0.42mm

; external perimeters extrusion width = 0.45mm
; perimeters extrusion width = 0.45mm
; infill extrusion width = 0.45mm
; solid infill extrusion width = 0.45mm
; top infill extrusion width = 0.40mm
; first layer extrusion width = 0.42mm

M73 P0 R33
M73 Q0 S34
M107
;TYPE:Custom
M862.3 P "MK3SMMU2S" ; printer model check
M862.1 P0.4 ; nozzle diameter check
M115 U3.9.3 ; tell printer latest fw version
G90 ; use absolute coordinates
M83 ; extruder relative mode
M104 S240 ; set extruder temp
M140 S85 ; set bed temp
Tx
M190 S85 ; wait for bed temp
M109 S240 ; wait for extruder temp
G28 W ; home all without mesh bed level
G80 ; mesh bed leveling

;go outside print area
G1 Y-3.0 F1000.0
G1 Z0.4 F1000.0
; select extruder
Tc
; purge line
G1 X55.0 F2000.0
G1 Z0.3 F1000.0
G92 E0.0
G1 X240.0 E25.0 F2200.0
G1 Y-2.0 F1000.0
G1 X55.0 E25 F1400.0
G1 Z0.20 F1000.0
G1 X5.0 E4.0 F1000.0

M221 S95
G92 E0.0

; Don't change E values below. Excessive value can damage the printer.
M907 E430 ; set extruder motor current
G21 ; set units to millimeters
G90 ; use absolute coordinates
M83 ; use relative distances for extrusion
M900 K0.08 ; Filament gcode LA 1.5
M900 K45 ; Filament gcode LA 1.0
M107
;LAYER_CHANGE
;Z:0.2
;HEIGHT:0.2
;BEFORE_LAYER_CHANGE
G92 E0.0
;0.2


G1 E-1.4 F2100
G1 Z.2 F10800
;AFTER_LAYER_CHANGE
;0.2
G1 Z.4
G1 X86.451 Y99.473
G1 Z.2
G1 E1.4 F2100
M204 S1000
;TYPE:Skirt/Brim
;WIDTH:0.42
G1 F1200
G1 X87.693 Y98.634 E.04699
G1 X89.1 Y98.062 E.04763
G1 X90.586 Y97.799 E.04731
G1 X165.582 Y97.799 E2.35143
G1 X166.076 Y97.851 E.01558
M73 P1 R33
M73 Q1 S34
G1 X167.068 Y98.062 E.03179
G1 X168.46 Y98.625 E.0471
G1 X169.717 Y99.473 E.04753
G1 X170.087 Y99.805 E.01558
G1 X171.051 Y100.953 E.04699
G1 X171.766 Y102.293 E.04763
G1 X172.08 Y103.257 E.03179
G1 X172.289 Y104.752 E.04731
G1 X172.289 Y105.248 E.01558
G1 X172.08 Y106.743 E.04731
G1 X171.766 Y107.707 E.03179
G1 X171.057 Y109.039 E.04732
G1 X170.087 Y110.195 E.04731
G1 X168.657 Y111.277 E.05621
G1 X127.577 Y134.172 E1.47456
G1 X126.461 Y134.681 E.03848
G1 X125.319 Y134.895 E.03643
G1 X124.707 Y134.897 E.01918
G1 X123.545 Y134.684 E.03706
G1 X122.276 Y134.083 E.044
G1 X87.271 Y111.123 E1.31258
G1 X86.451 Y110.527 E.03179
G1 X85.403 Y109.441 E.04731
G1 X84.604 Y108.161 E.04732
G1 X84.089 Y106.743 E.04732
G1 X83.879 Y105.248 E.04731
G1 X84.024 Y103.504 E.05487
G1 X84.402 Y102.293 E.0398
G1 X85.108 Y100.967 E.0471
G1 X85.408 Y100.553 E.01602
G1 X86.409 Y99.516 E.04521
; printing object distance-columns-led-10mm-14.5mm.stl id:2 copy 0
;WIPE_START
G1 F8640
G1 X87.693 Y98.634 E-.35962
G1 X89.1 Y98.062 E-.35079
G1 X90.586 Y97.799 E-.34844
G1 X91.761 Y97.799 E-.27114
;WIPE_END
G1 E-.07 F2100
G1 Z.4 F10800
G1 X165.075 Y105.551
G1 Z.2
M73 Q1 S33
G1 E1.4 F2100
;TYPE:Perimeter
G1 F1200
G1 X165.038 Y105.647 E.00324
G1 X164.847 Y105.924 E.01053
G1 X164.596 Y106.146 E.01053
G1 X164.299 Y106.302 E.01053
G1 X163.973 Y106.383 E.01053
G1 X163.637 Y106.383 E.01053
G1 X163.311 Y106.302 E.01053
G1 X163.014 Y106.146 E.01053
G1 X162.762 Y105.924 E.01053
G1 X162.572 Y105.647 E.01053
G1 X162.452 Y105.333 E.01053
G1 X162.412 Y105 E.01053
G1 X162.452 Y104.667 E.01053
G1 X162.572 Y104.353 E.01053
G1 X162.762 Y104.076 E.01053
G1 X163.014 Y103.854 E.01053
G1 X163.311 Y103.698 E.01053
G1 X163.637 Y103.617 E.01053
G1 X163.973 Y103.617 E.01053
G1 X164.299 Y103.698 E.01053
G1 X164.596 Y103.854 E.01053
G1 X164.847 Y104.076 E.01053
G1 X165.038 Y104.353 E.01053
G1 X165.075 Y104.449 E.00324
G1 X165.112 Y104.353 E.00324
G1 X165.302 Y104.076 E.01053
G1 X165.554 Y103.854 E.01053
G1 X165.851 Y103.698 E.01053
G1 X166.177 Y103.617 E.01053
G1 X166.513 Y103.617 E.01053
G1 X166.839 Y103.698 E.01053
G1 X167.136 Y103.854 E.01053
G1 X167.387 Y104.076 E.01053
G1 X167.578 Y104.353 E.01053
G1 X167.697 Y104.667 E.01053
G1 X167.738 Y105 E.01053
G1 X167.697 Y105.333 E.01053
G1 X167.578 Y105.647 E.01053
G1 X167.387 Y105.924 E.01053
G1 X167.136 Y106.146 E.01053
G1 X166.839 Y106.302 E.01053
G1 X166.513 Y106.383 E.01053
G1 X166.177 Y106.383 E.01053
G1 X165.851 Y106.302 E.01053
G1 X165.554 Y106.146 E.01053
G1 X165.302 Y105.924 E.01053
G1 X165.096 Y105.607 E.01186
G1 X165.332 Y105 F10800
;TYPE:External perimeter
G1 F1200
G1 X165.361 Y104.758 E.00766
G1 X165.448 Y104.529 E.00766
G1 X165.587 Y104.328 E.00766
G1 X165.769 Y104.166 E.00766
G1 X165.986 Y104.053 E.00766
G1 X166.223 Y103.994 E.00766
G1 X166.467 Y103.994 E.00766
G1 X166.704 Y104.053 E.00766
G1 X166.92 Y104.166 E.00766
G1 X167.103 Y104.328 E.00766
G1 X167.242 Y104.529 E.00766
G1 X167.328 Y104.758 E.00766
G1 X167.358 Y105 E.00766
G1 X167.328 Y105.242 E.00766
G1 X167.242 Y105.471 E.00766
G1 X167.103 Y105.672 E.00766
G1 X166.92 Y105.834 E.00766
G1 X166.704 Y105.947 E.00766
G1 X166.467 Y106.006 E.00766
G1 X166.223 Y106.006 E.00766
G1 X165.986 Y105.947 E.00766
G1 X165.769 Y105.834 E.00766
G1 X165.587 Y105.672 E.00766
G1 X165.448 Y105.471 E.00766
G1 X165.361 Y105.242 E.00766
G1 X165.339 Y105.06 E.00578
G1 X165.12 Y104.878 F10800
G1 X164.818 Y105
G1 F1200
G1 X164.788 Y105.242 E.00766
G1 X164.702 Y105.471 E.00766
G1 X164.563 Y105.672 E.00766
G1 X164.38 Y105.834 E.00766
G1 X164.164 Y105.947 E.00766
G1 X163.927 Y106.006 E.00766
G1 X163.683 Y106.006 E.00766
G1 X163.446 Y105.947 E.00766
G1 X163.229 Y105.834 E.00766
G1 X163.047 Y105.672 E.00766
G1 X162.908 Y105.471 E.00766
G1 X162.821 Y105.242 E.00766
G1 X162.792 Y105 E.00766
G1 X162.821 Y104.758 E.00766
G1 X162.908 Y104.529 E.00766
G1 X163.047 Y104.328 E.00766
G1 X163.229 Y104.166 E.00766
G1 X163.446 Y104.053 E.00766
G1 X163.683 Y103.994 E.00766
G1 X163.927 Y103.994 E.00766
G1 X164.164 Y104.053 E.00766
G1 X164.38 Y104.166 E.00766
G1 X164.563 Y104.328 E.00766
G1 X164.702 Y104.529 E.00766
G1 X164.788 Y104.758 E.00766
G1 X164.811 Y104.94 E.00578
G1 X165.029 Y105.122 F10800
;WIPE_START
G1 F8640
G1 X164.788 Y105.242 E-.06992
G1 X164.702 Y105.471 E-.05639
G1 X164.563 Y105.672 E-.05639
G1 X164.38 Y105.834 E-.05639
G1 X164.164 Y105.947 E-.05639
G1 X163.927 Y106.006 E-.05639
G1 X163.683 Y106.006 E-.05639
G1 X163.446 Y105.947 E-.05639
G1 X163.229 Y105.834 E-.05639
G1 X163.047 Y105.672 E-.05639
G1 X162.908 Y105.471 E-.05639
G1 X162.821 Y105.242 E-.05639
G1 X162.792 Y105 E-.05639
G1 X162.821 Y104.758 E-.05639
G1 X162.908 Y104.529 E-.05639
G1 X163.047 Y104.328 E-.05639
G1 X163.229 Y104.166 E-.05639
G1 X163.446 Y104.053 E-.05639
G1 X163.683 Y103.994 E-.05639
G1 X163.927 Y103.994 E-.05639
G1 X164.164 Y104.053 E-.05639
G1 X164.38 Y104.166 E-.05639
G1 X164.563 Y104.328 E-.05639
G1 X164.611 Y104.398 E-.01953
;WIPE_END
G1 E-.07 F2100
G1 Z.4 F10800
G1 X161.016 Y105
G1 Z.2
G1 E1.4 F2100
;TYPE:Perimeter
G1 F1200
G1 X161.105 Y104.156 E.0266
G1 X161.367 Y103.349 E.0266
G1 X161.791 Y102.614 E.0266
G1 X162.359 Y101.984 E.0266
G1 X163.046 Y101.485 E.0266
G1 X163.821 Y101.14 E.0266
G1 X164.651 Y100.964 E.0266
G1 X165.499 Y100.964 E.0266
G1 X166.329 Y101.14 E.0266
G1 X167.104 Y101.485 E.0266
G1 X167.791 Y101.984 E.0266
G1 X168.358 Y102.614 E.0266
G1 X168.783 Y103.349 E.0266
G1 X169.045 Y104.156 E.0266
G1 X169.133 Y105 E.0266
G1 X169.045 Y105.844 E.0266
G1 X168.783 Y106.651 E.0266
G1 X168.358 Y107.386 E.0266
G1 X167.791 Y108.016 E.0266
G1 X167.104 Y108.515 E.0266
G1 X166.329 Y108.86 E.0266
G1 X165.499 Y109.036 E.0266
G1 X164.651 Y109.036 E.0266
G1 X163.821 Y108.86 E.0266
G1 X163.046 Y108.515 E.0266
G1 X162.359 Y108.016 E.0266
G1 X161.791 Y107.386 E.0266
G1 X161.367 Y106.651 E.0266
G1 X161.105 Y105.844 E.0266
G1 X161.023 Y105.06 E.02472
G1 X160.637 Y105 F10800
;TYPE:External perimeter
G1 F1200
G1 X160.734 Y104.077 E.02909
G1 X161.021 Y103.195 E.02909
G1 X161.485 Y102.392 E.02909
G1 X162.105 Y101.702 E.02909
G1 X162.856 Y101.157 E.02909
G1 X163.703 Y100.779 E.02909
G1 X164.611 Y100.587 E.02909
G1 X165.539 Y100.587 E.02909
G1 X166.446 Y100.779 E.02909
G1 X167.294 Y101.157 E.02909
G1 X168.044 Y101.702 E.02909
G1 X168.665 Y102.392 E.02909
G1 X169.129 Y103.195 E.02909
G1 X169.416 Y104.077 E.02909
G1 X169.513 Y105 E.02909
G1 X169.416 Y105.923 E.02909
G1 X169.129 Y106.805 E.02909
G1 X168.665 Y107.608 E.02909
G1 X168.044 Y108.298 E.02909
G1 X167.294 Y108.843 E.02909
G1 X166.446 Y109.221 E.02909
G1 X165.539 Y109.413 E.02909
G1 X164.611 Y109.413 E.02909
G1 X163.703 Y109.221 E.02909
G1 X162.856 Y108.843 E.02909
G1 X162.105 Y108.298 E.02909
G1 X161.485 Y107.608 E.02909
G1 X161.021 Y106.805 E.02909
G1 X160.734 Y105.923 E.02909
G1 X160.643 Y105.06 E.02721
G1 X160.983 Y104.8 F10800
;WIPE_START
G1 F8640
G1 X160.734 Y104.077 E-.22779
G1 X161.021 Y103.195 E-.21422
G1 X161.485 Y102.392 E-.21422
G1 X162.105 Y101.702 E-.21422
G1 X162.856 Y101.157 E-.21422
G1 X163.703 Y100.779 E-.21422
G1 X163.835 Y100.751 E-.03112
;WIPE_END
G1 E-.07 F2100
G1 Z.4 F10800
G1 X165.044 Y105
G1 Z.2
G1 E1.4 F2100
;TYPE:Gap fill
;WIDTH:0.115283
G1 F1200
G1 X165.106 Y105 E.00037
;WIPE_START
G1 F8640
G1 X165.044 Y105 E-.01426
;WIPE_END
G1 E-1.38574 F2100
G1 Z.4 F10800
G1 X166.92 Y101.527
G1 Z.2
G1 E1.4 F2100
;TYPE:Solid infill
;WIDTH:0.438757
G1 F1200
G1 X167.711 Y102.318 E.03683
G1 X168.128 Y102.782 E.02053
G1 X168.523 Y103.465 E.02597
G1 X168.631 Y103.798 E.01153
G1 X166.245 Y101.412 E.11104
G1 X165.533 Y101.26 E.02397
M73 P1 R32
G1 X168.799 Y104.526 E.15202
G1 X168.849 Y105 E.01569
G1 X168.836 Y105.123 E.00406
G1 X164.96 Y101.246 E.18043
G1 X164.68 Y101.246 E.0092
G1 X164.449 Y101.296 E.00778
G1 X166.488 Y103.334 E.09491
G1 X166.94 Y103.431 E.0152
G1 X167.298 Y103.619 E.01331
G1 X167.601 Y103.887 E.01331
G1 X167.83 Y104.22 E.01331
G1 X167.974 Y104.598 E.01331
G1 X168.004 Y104.851 E.00837
G1 X168.937 Y105.784 E.04342
;WIPE_START
G1 F8640
G1 X168.004 Y104.851 E-.30462
G1 X167.974 Y104.598 E-.05868
G1 X167.83 Y104.22 E-.09339
G1 X167.601 Y103.887 E-.09339
G1 X167.298 Y103.619 E-.09339
G1 X166.94 Y103.431 E-.09339
G1 X166.488 Y103.334 E-.10665
G1 X164.998 Y101.845 E-.48648
;WIPE_END
G1 E-.07 F2100
G1 Z.4 F10800
G1 X167.824 Y105.23
G1 Z.2
G1 E1.4 F2100
G1 F1200
G1 X168.671 Y106.078 E.03946
G1 X168.534 Y106.5 E.01462
G1 X167.824 Y105.79 E.03307
G1 X167.593 Y106.119 E.01323
G1 X168.335 Y106.861 E.03452
G1 X168.13 Y107.215 E.01349
G1 X167.296 Y106.382 E.03881
G1 X166.927 Y106.572 E.01368
G1 X167.865 Y107.511 E.04369
G1 X167.6 Y107.805 E.01305
G1 X166.46 Y106.666 E.05304
G1 X166.143 Y106.666 E.01046
G1 X165.821 Y106.586 E.01089
G1 X167.276 Y108.041 E.06769
G1 X166.949 Y108.274 E.01321
G1 X164.916 Y106.241 E.09465
G1 X164.758 Y106.381 E.00695
G1 X164.586 Y106.471 E.00638
G1 X166.562 Y108.447 E.09197
G1 X166.241 Y108.59 E.01156
G1 X166.162 Y108.606 E.00266
G1 X164.039 Y106.483 E.09884
;WIPE_START
G1 F8640
G1 X166.162 Y108.606 E-.69338
G1 X166.241 Y108.59 E-.01868
G1 X166.562 Y108.447 E-.08112
G1 X164.918 Y106.803 E-.53682
;WIPE_END
G1 E-.07 F2100
G1 Z.4 F10800
G1 X166.111 Y103.517
G1 Z.2
G1 E1.4 F2100
G1 F1200
G1 X163.988 Y101.394 E.09884
G1 X163.909 Y101.41 E.00266
G1 X163.587 Y101.553 E.01157
G1 X165.563 Y103.529 E.09197
G1 X165.392 Y103.619 E.00638
G1 X165.234 Y103.759 E.00695
G1 X163.2 Y101.726 E.09465
G1 X162.874 Y101.959 E.01321
G1 X164.328 Y103.414 E.06769
G1 X164.007 Y103.334 E.01088
G1 X163.689 Y103.334 E.01046
G1 X162.55 Y102.195 E.05304
G1 X162.284 Y102.49 E.01305
G1 X163.223 Y103.428 E.04369
G1 X162.853 Y103.618 E.01368
G1 X162.02 Y102.785 E.03881
G1 X161.815 Y103.139 E.01349
G1 X162.556 Y103.881 E.03452
M73 P2 R32
G1 X162.326 Y104.211 E.01323
G1 X161.615 Y103.5 E.03307
G1 X161.478 Y103.923 E.01462
G1 X162.326 Y104.77 E.03946
;WIPE_START
G1 F8640
G1 X161.478 Y103.923 E-.27682
G1 X161.615 Y103.5 E-.10258
G1 X162.326 Y104.211 E-.23202
G1 X162.556 Y103.881 E-.09283
G1 X161.815 Y103.139 E-.24214
G1 X162.02 Y102.785 E-.09462
G1 X162.853 Y103.618 E-.27227
G1 X162.918 Y103.585 E-.01672
;WIPE_END
M73 Q2 S33
G1 E-.07 F2100
G1 Z.4 F10800
G1 X161.212 Y104.216
G1 Z.2
G1 E1.4 F2100
G1 F1200
G1 X162.145 Y105.149 E.04342
G1 X162.176 Y105.402 E.00836
G1 X162.319 Y105.78 E.01331
G1 X162.549 Y106.113 E.01331
G1 X162.852 Y106.381 E.01331
G1 X163.21 Y106.569 E.01331
G1 X163.661 Y106.666 E.0152
G1 X165.7 Y108.704 E.09491
G1 X165.469 Y108.754 E.00777
G1 X165.19 Y108.754 E.00921
G1 X161.313 Y104.877 E.18042
G1 X161.301 Y105 E.00406
G1 X161.35 Y105.474 E.01569
G1 X164.616 Y108.74 E.15201
G1 X163.904 Y108.587 E.02397
G1 X161.519 Y106.202 E.11103
G1 X161.627 Y106.535 E.01152
G1 X162.021 Y107.218 E.02597
G1 X162.44 Y107.683 E.02059
G1 X163.23 Y108.473 E.03676
; stop printing object distance-columns-led-10mm-14.5mm.stl id:2 copy 0
; printing object distance-columns-led-5mm-19.53mm.stl id:3 copy 0
;WIPE_START
G1 F8640
G1 X162.44 Y107.683 E-.2579
G1 X162.021 Y107.218 E-.14441
G1 X161.627 Y106.535 E-.18219
G1 X161.519 Y106.202 E-.08081
G1 X163.554 Y108.238 E-.66468
;WIPE_END
G1 E-.07 F2100
G1 Z.4 F10800
G1 X125 Y130.572
G1 Z.2
G1 E1.4 F2100
;TYPE:Perimeter
;WIDTH:0.42
G1 F1200
G1 X125.049 Y130.696 E.00419
G1 X125.259 Y130.977 E.01101
G1 X125.537 Y131.189 E.01097
G1 X125.86 Y131.32 E.01091
G1 X126.112 Y131.345 E.00794
G1 X125.998 Y131.433 E.00452
G1 X125.608 Y131.634 E.01373
G1 X125.206 Y131.733 E.01299
G1 X124.794 Y131.733 E.01291
G1 X124.392 Y131.634 E.01299
G1 X124.002 Y131.433 E.01373
G1 X123.888 Y131.345 E.00452
G1 X124.14 Y131.32 E.00794
G1 X124.463 Y131.189 E.01091
G1 X124.741 Y130.977 E.01097
G1 X124.951 Y130.696 E.01101
G1 X124.978 Y130.627 E.0023
G1 X125.381 Y130.51 F10800
;TYPE:External perimeter
G1 F1200
G1 X125.291 Y130.282 E.00771
G1 X125.259 Y130.038 E.00771
G1 X125.291 Y129.794 E.00771
G1 X125.381 Y129.566 E.00771
G1 X125.53 Y129.367 E.00778
G1 X125.726 Y129.217 E.00773
G1 X125.951 Y129.126 E.00763
G1 X126.19 Y129.102 E.00752
G1 X126.428 Y129.144 E.00758
G1 X126.628 Y129.262 E.00729
G1 X126.88 Y129.503 E.01094
G1 X126.989 Y129.661 E.006
G1 X127.058 Y129.844 E.00613
G1 X127.082 Y130.038 E.00613
G1 X127.058 Y130.232 E.00613
G1 X126.989 Y130.415 E.00613
G1 X126.88 Y130.573 E.006
G1 X126.628 Y130.814 E.01094
G1 X126.428 Y130.932 E.00729
G1 X126.19 Y130.974 E.00758
G1 X125.951 Y130.95 E.00752
G1 X125.726 Y130.859 E.00763
G1 X125.53 Y130.71 E.00773
G1 X125.417 Y130.559 E.0059
G1 X125.136 Y130.508 F10800
;WIPE_START
G1 F8640
G1 X125.291 Y130.282 E-.07024
G1 X125.259 Y130.038 E-.05678
G1 X125.291 Y129.794 E-.05678
G1 X125.381 Y129.566 E-.05677
G1 X125.53 Y129.367 E-.05731
G1 X125.726 Y129.217 E-.05689
G1 X125.951 Y129.126 E-.05621
G1 X126.19 Y129.102 E-.0554
G1 X126.428 Y129.144 E-.05581
G1 X126.628 Y129.262 E-.05366
G1 X126.88 Y129.503 E-.08055
G1 X126.989 Y129.661 E-.04419
G1 X127.058 Y129.844 E-.04518
G1 X127.082 Y130.038 E-.04517
G1 X127.058 Y130.232 E-.04517
G1 X126.989 Y130.415 E-.04518
G1 X126.88 Y130.573 E-.04419
G1 X126.628 Y130.814 E-.08055
G1 X126.428 Y130.932 E-.05366
G1 X126.19 Y130.974 E-.05581
G1 X125.951 Y130.95 E-.05539
G1 X125.726 Y130.859 E-.05621
G1 X125.53 Y130.71 E-.05689
G1 X125.417 Y130.559 E-.04346
;WIPE_END
G1 E-.07255 F2100
G1 Z.4 F10800
G1 X124.002 Y128.643
G1 Z.2
G1 E1.4 F2100
;TYPE:Perimeter
G1 F1200
G1 X124.392 Y128.442 E.01373
G1 X124.794 Y128.343 E.01299
G1 X125.206 Y128.343 E.01291
G1 X125.608 Y128.442 E.01299
G1 X125.998 Y128.643 E.01373
G1 X126.112 Y128.731 E.00452
G1 X125.86 Y128.756 E.00794
G1 X125.537 Y128.887 E.01091
G1 X125.259 Y129.099 E.01097
G1 X125.049 Y129.38 E.01101
G1 X125 Y129.505 E.00419
G1 X124.951 Y129.38 E.00419
G1 X124.741 Y129.099 E.01101
G1 X124.463 Y128.887 E.01097
G1 X124.14 Y128.756 E.01091
