; generated by PrusaSlicer 2.3.1+win64 on 2022-04-02 at 15:16:25 UTC

; 

; external perimeters extrusion width = 0.45mm
; perimeters extrusion width = 0.45mm
; infill extrusion width = 0.45mm
; solid infill extrusion width = 0.45mm
; top infill extrusion width = 0.40mm
; support material extrusion width = 0.35mm
; first layer extrusion width = 0.42mm

M73 P0 R497
M73 Q0 S502
M201 X1000 Y1000 Z200 E5000 ; sets maximum accelerations, mm/sec^2
M203 X200 Y200 Z12 E120 ; sets maximum feedrates, mm/sec
M204 P1250 R1250 T1250 ; sets acceleration (P, T) and retract acceleration (R), mm/sec^2
M205 X8.00 Y8.00 Z0.40 E4.50 ; sets the jerk limits, mm/sec
M205 S0 T0 ; sets the minimum extruding and travel feed rate, mm/sec
M107
;TYPE:Custom
M862.3 P "MK3SMMU2S" ; printer model check
M862.1 P0.4 ; nozzle diameter check
M115 U3.9.3 ; tell printer latest fw version
G90 ; use absolute coordinates
M83 ; extruder relative mode
M104 S240 ; set extruder temp
M140 S85 ; set bed temp
Tx
M190 S85 ; wait for bed temp
M109 S240 ; wait for extruder temp
G28 W ; home all without mesh bed level
G80 ; mesh bed leveling

;go outside print area
G1 Y-3.0 F1000.0
G1 Z0.4 F1000.0
; select extruder
Tc
; purge line
G1 X55.0 F2000.0
G1 Z0.3 F1000.0
G92 E0.0
G1 X240.0 E25.0 F2200.0
G1 Y-2.0 F1000.0
G1 X55.0 E25 F1400.0
G1 Z0.20 F1000.0
G1 X5.0 E4.0 F1000.0

M221 S95
G92 E0.0

; Don't change E values below. Excessive value can damage the printer.
M907 E430 ; set extruder motor current
G21 ; set units to millimeters
G90 ; use absolute coordinates
M83 ; use relative distances for extrusion
M900 K0.08 ; Filament gcode LA 1.5
M900 K45 ; Filament gcode LA 1.0
;LAYER_CHANGE
;Z:0.2
;HEIGHT:0.2
;BEFORE_LAYER_CHANGE
G92 E0.0
;0.2


G1 E-1.40000 F2100.000
G1 Z0.200 F10800.000
;AFTER_LAYER_CHANGE
;0.2
G1 Z0.400
G1 X52.181 Y55.158
G1 Z0.200
G1 E1.40000 F2100.000
M204 S1000
;TYPE:Skirt
;WIDTH:0.42
G1 F1200.000
G1 X52.472 Y54.722 E0.01645
G1 X52.849 Y54.362 E0.01633
G1 X53.295 Y54.093 E0.01633
G1 X53.792 Y53.926 E0.01645
G1 X115.201 Y41.538 E1.96422
G1 X135.185 Y41.738 E0.62662
G1 X196.199 Y53.924 E1.95083
G1 X197.038 Y54.281 E0.02860
G1 X197.682 Y54.927 E0.02860
G1 X197.972 Y55.529 E0.02095
G1 X211.040 Y96.913 E1.36072
G1 X211.089 Y119.744 E0.71584
G1 X210.984 Y120.427 E0.02166
G1 X197.971 Y162.573 E1.38301
G1 X197.606 Y163.280 E0.02496
G1 X197.030 Y163.825 E0.02484
G1 X196.403 Y164.123 E0.02178
G1 X195.712 Y164.227 E0.02190
G1 X54.282 Y164.227 E4.43446
M73 P0 R496
M73 Q0 S501
G1 X53.709 Y164.154 E0.01811
G1 X53.170 Y163.945 E0.01811
G1 X52.698 Y163.613 E0.01811
G1 X52.318 Y163.173 E0.01823
G1 X52.022 Y162.553 E0.02154
G1 X39.016 Y120.258 E1.38740
G1 X38.911 Y119.564 E0.02201
G1 X38.960 Y96.744 E0.71550
G1 X52.163 Y55.215 E1.36632
; printing object rear-part.stl id:0 copy 0
;WIPE_START
G1 F8640.000
G1 X52.472 Y54.722 E-0.13449
G1 X52.849 Y54.362 E-0.12025
G1 X53.295 Y54.093 E-0.12025
G1 X53.792 Y53.926 E-0.12113
G1 X57.332 Y53.212 E-0.83388
;WIPE_END
G1 E-0.07000 F2100.000
G1 Z0.400 F10800.000
G1 X41.288 Y97.224
G1 Z0.200
G1 E1.40000 F2100.000
;TYPE:Support material
G1 F1200.000
G1 X41.288 Y119.559 E0.70030
G1 X42.043 Y119.559 E0.02365
G1 X42.043 Y97.394 E0.69498
G1 X42.797 Y97.394 E0.02365
G1 X42.797 Y119.559 E0.69498
G1 X43.551 Y119.559 E0.02365
G1 X43.551 Y97.394 E0.69498
G1 X44.305 Y97.394 E0.02365
G1 X44.305 Y119.559 E0.69498
G1 X45.059 Y119.559 E0.02365
G1 X45.059 Y97.394 E0.69498
G1 X45.813 Y97.394 E0.02365
G1 X45.813 Y119.559 E0.69498
G1 X46.567 Y119.559 E0.02365
G1 X46.567 Y97.394 E0.69498
G1 X47.322 Y97.394 E0.02365
G1 X47.322 Y119.559 E0.69498
G1 X48.076 Y119.559 E0.02365
G1 X48.076 Y97.394 E0.69498
G1 X48.830 Y97.394 E0.02365
G1 X48.830 Y119.559 E0.69498
G1 X49.584 Y119.559 E0.02365
G1 X49.584 Y97.394 E0.69498
G1 X50.338 Y97.394 E0.02365
G1 X50.338 Y119.559 E0.69498
G1 X51.092 Y119.559 E0.02365
G1 X51.092 Y97.394 E0.69498
G1 X51.847 Y97.394 E0.02365
G1 X51.847 Y119.559 E0.69498
G1 X52.601 Y119.559 E0.02365
G1 X52.601 Y97.394 E0.69498
G1 X53.355 Y97.394 E0.02365
G1 X53.355 Y119.729 E0.70030
;WIPE_START
G1 F8640.000
G1 X53.355 Y113.969 E-1.33000
;WIPE_END
G1 E-0.07000 F2100.000
G1 Z0.400 F10800.000
G1 X115.196 Y43.915
G1 Z0.200
G1 E1.40000 F2100.000
G1 F1200.000
G1 X115.196 Y55.836 E0.37380
G1 X115.950 Y55.836 E0.02365
G1 X115.950 Y44.084 E0.36848
G1 X116.704 Y44.084 E0.02365
G1 X116.704 Y55.836 E0.36848
G1 X117.458 Y55.836 E0.02365
G1 X117.458 Y44.084 E0.36848
G1 X118.213 Y44.084 E0.02365
G1 X118.213 Y55.836 E0.36848
G1 X118.967 Y55.836 E0.02365
G1 X118.967 Y44.084 E0.36848
G1 X119.721 Y44.084 E0.02365
G1 X119.721 Y55.836 E0.36848
G1 X120.475 Y55.836 E0.02365
G1 X120.475 Y44.084 E0.36848
G1 X121.229 Y44.084 E0.02365
G1 X121.229 Y55.836 E0.36848
G1 X121.983 Y55.836 E0.02365
G1 X121.983 Y44.084 E0.36848
G1 X122.738 Y44.084 E0.02365
G1 X122.738 Y55.836 E0.36848
G1 X123.492 Y55.836 E0.02365
G1 X123.492 Y44.084 E0.36848
G1 X124.246 Y44.084 E0.02365
G1 X124.246 Y55.836 E0.36848
G1 X125.000 Y55.836 E0.02365
G1 X125.000 Y44.084 E0.36848
G1 X125.754 Y44.084 E0.02365
G1 X125.754 Y55.836 E0.36848
G1 X126.508 Y55.836 E0.02365
G1 X126.508 Y44.084 E0.36848
G1 X127.262 Y44.084 E0.02365
G1 X127.262 Y55.836 E0.36848
G1 X128.017 Y55.836 E0.02365
G1 X128.017 Y44.084 E0.36848
G1 X128.771 Y44.084 E0.02365
G1 X128.771 Y55.836 E0.36848
G1 X129.525 Y55.836 E0.02365
G1 X129.525 Y44.084 E0.36848
G1 X130.279 Y44.084 E0.02365
G1 X130.279 Y55.836 E0.36848
G1 X131.033 Y55.836 E0.02365
G1 X131.033 Y44.084 E0.36848
G1 X131.787 Y44.084 E0.02365
G1 X131.787 Y55.836 E0.36848
G1 X132.542 Y55.836 E0.02365
G1 X132.542 Y44.084 E0.36848
G1 X133.296 Y44.084 E0.02365
G1 X133.296 Y55.836 E0.36848
G1 X134.050 Y55.836 E0.02365
G1 X134.050 Y44.084 E0.36848
G1 X134.804 Y44.084 E0.02365
G1 X134.804 Y56.006 E0.37380
;WIPE_START
G1 F8640.000
G1 X134.804 Y50.246 E-1.33000
;WIPE_END
G1 E-0.07000 F2100.000
G1 Z0.400 F10800.000
G1 X196.645 Y97.224
G1 Z0.200
G1 E1.40000 F2100.000
G1 F1200.000
G1 X196.645 Y119.559 E0.70030
G1 X197.399 Y119.559 E0.02365
G1 X197.399 Y97.394 E0.69498
G1 X198.153 Y97.394 E0.02365
G1 X198.153 Y119.559 E0.69498
G1 X198.908 Y119.559 E0.02365
G1 X198.908 Y97.394 E0.69498
G1 X199.662 Y97.394 E0.02365
G1 X199.662 Y119.559 E0.69498
G1 X200.416 Y119.559 E0.02365
G1 X200.416 Y97.394 E0.69498
G1 X201.170 Y97.394 E0.02365
G1 X201.170 Y119.559 E0.69498
G1 X201.924 Y119.559 E0.02365
G1 X201.924 Y97.394 E0.69498
G1 X202.678 Y97.394 E0.02365
G1 X202.678 Y119.559 E0.69498
M73 P0 R495
M73 Q0 S500
G1 X203.433 Y119.559 E0.02365
G1 X203.433 Y97.394 E0.69498
G1 X204.187 Y97.394 E0.02365
G1 X204.187 Y119.559 E0.69498
G1 X204.941 Y119.559 E0.02365
G1 X204.941 Y97.394 E0.69498
G1 X205.695 Y97.394 E0.02365
G1 X205.695 Y119.559 E0.69498
G1 X206.449 Y119.559 E0.02365
G1 X206.449 Y97.394 E0.69498
G1 X207.203 Y97.394 E0.02365
G1 X207.203 Y119.559 E0.69498
G1 X207.957 Y119.559 E0.02365
G1 X207.957 Y97.394 E0.69498
G1 X208.712 Y97.394 E0.02365
G1 X208.712 Y119.729 E0.70030
;WIPE_START
G1 F8640.000
G1 X208.712 Y113.969 E-1.33000
;WIPE_END
G1 E-0.07000 F2100.000
G1 Z0.400 F10800.000
G1 X140.994 Y64.664
G1 Z0.200
G1 E1.40000 F2100.000
;TYPE:Perimeter
G1 F1200.000
G1 X140.877 Y64.740 E0.00435
G1 X140.902 Y64.537 E0.00641
G1 X140.959 Y64.616 E0.00304
;WIPE_START
G1 F8640.000
G1 X140.877 Y64.740 E-0.03429
G1 X140.902 Y64.537 E-0.04723
G1 X140.959 Y64.616 E-0.02237
;WIPE_END
G1 E-1.29611 F2100.000
G1 Z0.400 F10800.000
G1 X153.335 Y64.768
G1 Z0.200
G1 E1.40000 F2100.000
G1 F1200.000
G1 X153.362 Y64.438 E0.01039
G1 X153.517 Y64.655 E0.00837
G1 X153.382 Y64.730 E0.00486
;WIPE_START
G1 F8640.000
G1 X153.362 Y64.438 E-0.06773
G1 X153.517 Y64.655 E-0.06162
G1 X153.382 Y64.730 E-0.03579
;WIPE_END
G1 E-1.23486 F2100.000
G1 Z0.400 F10800.000
G1 X176.017 Y65.053
G1 Z0.200
G1 E1.40000 F2100.000
G1 F1200.000
G1 X176.192 Y64.817 E0.00921
G1 X176.298 Y64.620 E0.00701
G1 X176.387 Y65.025 E0.01301
G1 X176.550 Y65.530 E0.01663
G1 X176.793 Y66.144 E0.02069
G1 X176.671 Y65.936 E0.00757
G1 X176.053 Y65.101 E0.03255
;WIPE_START
G1 F8640.000
G1 X176.192 Y64.817 E-0.07308
G1 X176.298 Y64.620 E-0.05166
G1 X176.387 Y65.025 E-0.09579
G1 X176.550 Y65.530 E-0.12249
G1 X176.793 Y66.144 E-0.15236
G1 X176.671 Y65.936 E-0.05578
G1 X176.053 Y65.101 E-0.23972
;WIPE_END
G1 E-0.60913 F2100.000
G1 Z0.400 F10800.000
G1 X184.305 Y65.162
G1 Z0.200
G1 E1.40000 F2100.000
G1 F1200.000
G1 X184.327 Y65.046 E0.00371
G1 X184.551 Y65.058 E0.00703
G1 X184.814 Y65.124 E0.00849
G1 X185.573 Y65.075 E0.02386
G1 X185.659 Y64.794 E0.00921
G1 X186.217 Y64.830 E0.01752
G1 X186.155 Y64.884 E0.00257
G1 X185.802 Y65.352 E0.01839
G1 X185.755 Y65.450 E0.00341
G1 X185.034 Y65.278 E0.02325
G1 X184.771 Y65.409 E0.00922
G1 X184.324 Y65.464 E0.01412
G1 X184.307 Y65.222 E0.00760
;WIPE_START
G1 F8640.000
G1 X184.327 Y65.046 E-0.04093
G1 X184.551 Y65.058 E-0.05178
G1 X184.814 Y65.124 E-0.06253
G1 X185.573 Y65.075 E-0.17568
G1 X185.659 Y64.794 E-0.06780
G1 X186.217 Y64.830 E-0.12903
G1 X186.155 Y64.884 E-0.01895
G1 X185.802 Y65.352 E-0.13541
G1 X185.755 Y65.450 E-0.02511
G1 X185.034 Y65.278 E-0.17119
G1 X184.771 Y65.409 E-0.06789
G1 X184.324 Y65.464 E-0.10399
G1 X184.307 Y65.222 E-0.05599
;WIPE_END
G1 E-0.29371 F2100.000
G1 Z0.400 F10800.000
G1 X156.882 Y61.302
G1 Z0.200
G1 E1.40000 F2100.000
G1 F1200.000
G1 X159.482 Y61.322 E0.08152
G1 X159.374 Y62.596 E0.04007
G1 X159.284 Y62.892 E0.00971
G1 X159.509 Y62.747 E0.00838
G1 X160.215 Y62.760 E0.02214
G1 X160.529 Y62.869 E0.01043
G1 X160.782 Y63.006 E0.00903
G1 X160.969 Y63.153 E0.00746
G1 X161.265 Y63.505 E0.01440
G1 X161.344 Y63.693 E0.00638
G1 X161.390 Y63.592 E0.00347
G1 X161.533 Y63.393 E0.00768
G1 X161.915 Y63.050 E0.01609
G1 X162.325 Y62.849 E0.01431
G1 X162.817 Y62.721 E0.01595
G1 X163.333 Y62.682 E0.01622
G1 X163.765 Y62.715 E0.01360
G1 X164.024 Y62.768 E0.00829
G1 X164.278 Y62.858 E0.00844
G1 X164.497 Y62.976 E0.00782
G1 X165.670 Y62.737 E0.03751
G1 X166.067 Y62.698 E0.01251
G1 X167.014 Y62.681 E0.02970
G1 X167.295 Y63.591 E0.02985
G1 X167.576 Y62.678 E0.02996
G1 X168.536 Y62.705 E0.03009
G1 X168.978 Y62.766 E0.01400
G1 X169.717 Y63.050 E0.02482
G1 X169.772 Y62.996 E0.00242
G1 X170.216 Y62.796 E0.01525
G1 X170.578 Y62.715 E0.01165
G1 X170.843 Y62.690 E0.00834
G1 X171.410 Y62.730 E0.01783
G1 X171.802 Y62.839 E0.01274
G1 X172.242 Y63.055 E0.01536
G1 X172.191 Y62.633 E0.01332
G1 X172.151 Y61.313 E0.04141
G1 X174.738 Y61.307 E0.08113
G1 X174.688 Y63.089 E0.05591
G1 X174.963 Y62.717 E0.01451
G1 X175.740 Y62.703 E0.02438
G1 X176.215 Y62.764 E0.01502
G1 X176.505 Y62.867 E0.00963
G1 X176.782 Y62.765 E0.00927
G1 X177.238 Y62.702 E0.01444
G1 X178.219 Y62.681 E0.03076
G1 X178.458 Y63.494 E0.02656
G1 X178.683 Y62.690 E0.02618
G1 X181.461 Y62.683 E0.08708
G1 X180.451 Y65.388 E0.09055
G1 X180.543 Y65.327 E0.00346
G1 X180.778 Y65.234 E0.00795
G1 X181.095 Y65.193 E0.01002
G1 X181.540 Y65.236 E0.01399
G1 X181.764 Y65.349 E0.00788
G1 X181.751 Y64.955 E0.01235
G1 X181.806 Y64.504 E0.01426
G1 X181.949 Y64.057 E0.01470
G1 X182.163 Y63.671 E0.01383
G1 X182.463 Y63.323 E0.01442
G1 X182.801 Y63.062 E0.01338
G1 X183.184 Y62.870 E0.01344
G1 X183.670 Y62.734 E0.01582
G1 X184.104 Y62.691 E0.01368
G1 X184.519 Y62.712 E0.01303
G1 X184.868 Y62.790 E0.01123
G1 X185.217 Y62.923 E0.01169
G1 X185.354 Y63.029 E0.00546
G1 X186.259 Y62.760 E0.02958
G1 X186.788 Y62.694 E0.01673
G1 X189.409 Y62.683 E0.08218
G1 X189.409 Y64.377 E0.05311
G1 X188.664 Y65.332 E0.03798
G1 X188.410 Y65.590 E0.01135
G1 X189.417 Y65.470 E0.03181
G1 X189.483 Y67.839 E0.07432
G1 X186.746 Y67.826 E0.08583
G1 X186.192 Y67.761 E0.01747
G1 X185.268 Y67.501 E0.03011
G1 X185.184 Y67.577 E0.00355
G1 X184.848 Y67.714 E0.01138
G1 X184.463 Y67.803 E0.01238
G1 X184.035 Y67.830 E0.01346
G1 X183.559 Y67.782 E0.01498
G1 X183.092 Y67.641 E0.01530
G1 X182.718 Y67.426 E0.01353
G1 X182.370 Y67.089 E0.01519
G1 X182.289 Y67.303 E0.00717
G1 X182.069 Y67.529 E0.00990
G1 X181.855 Y67.677 E0.00814
G1 X181.455 Y67.819 E0.01330
G1 X181.154 Y67.832 E0.00947
G1 X180.871 Y67.797 E0.00892
G1 X180.636 Y67.722 E0.00775
G1 X180.418 Y67.602 E0.00781
G1 X180.219 Y67.431 E0.00822
G1 X180.037 Y67.188 E0.00951
G1 X179.913 Y66.829 E0.01190
G1 X179.532 Y67.848 E0.03409
G1 X179.388 Y68.177 E0.01128
G1 X179.257 Y68.407 E0.00831
G1 X179.044 Y68.698 E0.01130
G1 X178.756 Y68.980 E0.01264
G1 X178.397 Y69.221 E0.01355
G1 X178.056 Y69.369 E0.01166
G1 X177.705 Y69.457 E0.01135
G1 X177.291 Y69.491 E0.01302
G1 X176.852 Y69.454 E0.01383
G1 X175.974 Y69.276 E0.02809
G1 X176.067 Y68.157 E0.03519
G1 X176.177 Y67.745 E0.01339
G1 X175.840 Y67.806 E0.01076
G1 X174.987 Y67.836 E0.02674
G1 X174.717 Y67.412 E0.01575
G1 X174.769 Y67.785 E0.01180
G1 X173.427 Y67.809 E0.04208
G1 X172.164 Y67.711 E0.03972
G1 X172.209 Y67.375 E0.01061
G1 X171.851 Y67.603 E0.01332
G1 X171.445 Y67.751 E0.01352
G1 X170.908 Y67.830 E0.01702
G1 X170.364 Y67.832 E0.01707
G1 X169.885 Y67.784 E0.01508
G1 X169.478 Y67.688 E0.01313
G1 X168.625 Y67.362 E0.02861
G1 X168.650 Y67.024 E0.01063
G1 X168.343 Y67.837 E0.02725
G1 X166.246 Y67.837 E0.06576
G1 X165.669 Y66.300 E0.05147
G1 X165.601 Y66.514 E0.00703
G1 X165.365 Y66.909 E0.01446
G1 X165.020 Y67.275 E0.01576
G1 X164.650 Y67.528 E0.01405
G1 X164.242 Y67.703 E0.01390
G1 X163.807 Y67.804 E0.01402
G1 X163.314 Y67.839 E0.01550
G1 X162.772 Y67.790 E0.01704
G1 X162.310 Y67.656 E0.01509
G1 X161.899 Y67.444 E0.01451
G1 X161.570 Y67.144 E0.01396
G1 X161.416 Y66.949 E0.00782
G1 X161.352 Y66.811 E0.00473
G1 X161.316 Y66.906 E0.00317
G1 X161.098 Y67.232 E0.01231
G1 X160.772 Y67.524 E0.01370
G1 X160.520 Y67.660 E0.00899
G1 X160.210 Y67.771 E0.01032
G1 X159.879 Y67.828 E0.01051
G1 X159.530 Y67.836 E0.01096
G1 X159.215 Y67.800 E0.00994
G1 X158.996 Y67.738 E0.00712
G1 X158.953 Y67.850 E0.00375
G1 X157.995 Y67.805 E0.03009
G1 X157.152 Y67.698 E0.02664
G1 X156.365 Y67.804 E0.02488
G1 X155.429 Y67.847 E0.02939
G1 X155.379 Y67.710 E0.00457
G1 X155.247 Y67.762 E0.00445
G1 X154.730 Y67.835 E0.01638
G1 X154.218 Y67.814 E0.01607
G1 X153.820 Y67.711 E0.01288
G1 X153.459 Y67.511 E0.01297
G1 X153.347 Y67.409 E0.00473
G1 X153.384 Y67.724 E0.00993
G1 X152.124 Y67.815 E0.03961
G1 X150.793 Y67.812 E0.04174
G1 X150.913 Y66.461 E0.04255
G1 X150.958 Y66.268 E0.00620
G1 X150.644 Y66.365 E0.01031
G1 X150.093 Y66.423 E0.01737
G1 X149.542 Y66.365 E0.01737
G1 X149.145 Y66.243 E0.01304
G1 X149.203 Y66.510 E0.00857
G1 X149.288 Y67.825 E0.04134
G1 X146.905 Y67.839 E0.07470
G1 X146.905 Y67.854 E0.00047
G1 X145.592 Y67.805 E0.04122
G1 X144.588 Y67.703 E0.03164
G1 X143.836 Y67.804 E0.02379
G1 X142.900 Y67.847 E0.02938
G1 X142.850 Y67.710 E0.00457
G1 X142.718 Y67.762 E0.00445
G1 X142.199 Y67.835 E0.01643
G1 X141.677 Y67.811 E0.01640
G1 X141.283 Y67.693 E0.01288
G1 X140.901 Y67.472 E0.01383
G1 X140.931 Y67.673 E0.00638
G1 X139.704 Y67.806 E0.03871
G1 X138.387 Y67.854 E0.04131
G1 X138.387 Y67.837 E0.00054
G1 X136.448 Y67.843 E0.06081
G1 X133.868 Y67.816 E0.08090
G1 X133.910 Y67.109 E0.02220
G1 X133.592 Y67.404 E0.01362
G1 X133.097 Y67.666 E0.01754
G1 X132.559 Y67.804 E0.01742
G1 X132.066 Y67.839 E0.01551
G1 X131.633 Y67.809 E0.01360
G1 X131.174 Y67.701 E0.01477
G1 X130.761 Y67.522 E0.01413
G1 X130.325 Y67.211 E0.01679
G1 X130.018 Y66.865 E0.01449
G1 X129.787 Y66.462 E0.01456
G1 X129.639 Y66.007 E0.01501
G1 X129.602 Y65.514 E0.01549
G1 X129.662 Y65.101 E0.01308
G1 X129.699 Y65.010 E0.00308
G1 X129.383 Y65.139 E0.01070
G1 X129.309 Y65.198 E0.00296
G1 X129.289 Y65.293 E0.00306
G1 X129.289 Y67.837 E0.07976
G1 X126.729 Y67.837 E0.08025
G1 X126.731 Y63.911 E0.12309
G1 X126.758 Y62.642 E0.03981
G1 X128.017 Y62.760 E0.03967
G1 X128.690 Y62.999 E0.02239
G1 X128.727 Y62.896 E0.00343
G1 X129.287 Y62.770 E0.01801
G1 X129.451 Y62.773 E0.00515
G1 X129.601 Y62.730 E0.00488
G1 X129.975 Y62.788 E0.01186
G1 X130.629 Y63.116 E0.02296
G1 X131.124 Y62.835 E0.01786
G1 X131.640 Y62.711 E0.01662
G1 X132.084 Y62.682 E0.01397
G1 X132.630 Y62.729 E0.01717
G1 X133.096 Y62.862 E0.01519
G1 X133.574 Y63.116 E0.01698
G1 X133.922 Y63.440 E0.01491
G1 X133.892 Y62.664 E0.02436
G1 X135.172 Y62.760 E0.04025
G1 X135.664 Y62.930 E0.01630
G1 X136.037 Y62.734 E0.01321
G1 X136.147 Y62.784 E0.00380
