; generated by PrusaSlicer 2.4.1+win64 on 2022-04-17 at 11:32:40 UTC

; 

; external perimeters extrusion width = 0.45mm
; perimeters extrusion width = 0.45mm
; infill extrusion width = 0.45mm
; solid infill extrusion width = 0.45mm
; top infill extrusion width = 0.40mm
; support material extrusion width = 0.35mm
; first layer extrusion width = 0.42mm

M73 P0 R391
M73 Q0 S394
M107
;TYPE:Custom
M862.3 P "MK3SMMU2S" ; printer model check
M862.1 P0.4 ; nozzle diameter check
M115 U3.9.3 ; tell printer latest fw version
G90 ; use absolute coordinates
M83 ; extruder relative mode
M104 S240 ; set extruder temp
M140 S85 ; set bed temp
Tx
M190 S85 ; wait for bed temp
M109 S240 ; wait for extruder temp
G28 W ; home all without mesh bed level
G80 ; mesh bed leveling

;go outside print area
G1 Y-3.0 F1000.0
G1 Z0.4 F1000.0
; select extruder
Tc
; purge line
G1 X55.0 F2000.0
G1 Z0.3 F1000.0
G92 E0.0
G1 X240.0 E25.0 F2200.0
G1 Y-2.0 F1000.0
G1 X55.0 E25 F1400.0
G1 Z0.20 F1000.0
M73 P0 R390
M73 Q0 S393
G1 X5.0 E4.0 F1000.0

M221 S95
G92 E0.0

; Don't change E values below. Excessive value can damage the printer.
M907 E430 ; set extruder motor current
G21 ; set units to millimeters
G90 ; use absolute coordinates
M83 ; use relative distances for extrusion
M900 K0.08 ; Filament gcode LA 1.5
M900 K45 ; Filament gcode LA 1.0
M107
;LAYER_CHANGE
;Z:0.2
;HEIGHT:0.2
;BEFORE_LAYER_CHANGE
G92 E0.0
;0.2


G1 E-1.4 F2100
G1 Z.2 F10800
;AFTER_LAYER_CHANGE
;0.2
G1 Z.4
G1 X52.792 Y54.407
G1 Z.2
G1 E1.4 F2100
M204 S1000
;TYPE:Skirt/Brim
;WIDTH:0.42
G1 F1200
G1 X53.838 Y53.917 E.0362
G1 X114.68 Y42.046 E1.94364
G1 X135.32 Y42.046 E.64714
G1 X196.162 Y53.917 E1.94364
G1 X197.37 Y54.552 E.04278
G1 X197.974 Y55.535 E.0362
G1 X210.958 Y96.728 E1.3542
G1 X211.068 Y97.442 E.02267
G1 X211.068 Y119.479 E.69094
G1 X210.964 Y120.175 E.02208
G1 X197.98 Y162.546 E1.3895
G1 X197.222 Y163.681 E.04278
G1 X195.707 Y164.227 E.0505
G1 X54.293 Y164.227 E4.43394
G1 X52.986 Y163.835 E.04278
G1 X52.02 Y162.546 E.0505
G1 X39.036 Y120.175 E1.3895
G1 X38.932 Y119.479 E.02208
G1 X38.932 Y97.442 E.69094
G1 X39.042 Y96.728 E.02267
G1 X52.026 Y55.535 E1.3542
G1 X52.759 Y54.456 E.0409
; printing object rear-part.stl id:0 copy 0
;WIPE_START
G1 F8640
G1 X53.838 Y53.917 E-.27858
G1 X58.307 Y53.045 E-1.05142
;WIPE_END
G1 E-.07 F2100
G1 Z.4 F10800
G1 X53.858 Y119.479
G1 Z.2
G1 E1.4 F2100
;TYPE:Support material
G1 F1200
G1 X41.309 Y119.479 E.39347
G1 X41.309 Y97.442 E.69094
G1 X53.858 Y97.442 E.39347
G1 X53.858 Y119.422 E.68916
G1 X53.355 Y119.309 F10800
G1 F1200
G1 X53.355 Y97.782 E.67498
G1 X52.936 Y97.782 E.01314
G1 X52.936 Y119.139 E.66966
G1 X52.517 Y119.139 E.01314
G1 X52.517 Y97.782 E.66966
G1 X52.098 Y97.782 E.01314
G1 X52.098 Y119.139 E.66966
G1 X51.679 Y119.139 E.01314
G1 X51.679 Y97.782 E.66966
G1 X51.26 Y97.782 E.01314
G1 X51.26 Y119.139 E.66966
G1 X50.841 Y119.139 E.01314
G1 X50.841 Y97.782 E.66966
G1 X50.422 Y97.782 E.01314
G1 X50.422 Y119.139 E.66966
G1 X50.003 Y119.139 E.01314
G1 X50.003 Y97.782 E.66966
G1 X49.584 Y97.782 E.01314
G1 X49.584 Y119.139 E.66966
G1 X49.165 Y119.139 E.01314
G1 X49.165 Y97.782 E.66966
G1 X48.746 Y97.782 E.01314
G1 X48.746 Y119.139 E.66966
G1 X48.327 Y119.139 E.01314
G1 X48.327 Y97.782 E.66966
G1 X47.908 Y97.782 E.01314
G1 X47.908 Y119.139 E.66966
G1 X47.489 Y119.139 E.01314
G1 X47.489 Y97.782 E.66966
G1 X47.07 Y97.782 E.01314
G1 X47.07 Y119.139 E.66966
G1 X46.651 Y119.139 E.01314
G1 X46.651 Y97.782 E.66966
G1 X46.232 Y97.782 E.01314
G1 X46.232 Y119.139 E.66966
G1 X45.813 Y119.139 E.01314
G1 X45.813 Y97.782 E.66966
G1 X45.394 Y97.782 E.01314
G1 X45.394 Y119.139 E.66966
G1 X44.975 Y119.139 E.01314
G1 X44.975 Y97.782 E.66966
G1 X44.556 Y97.782 E.01314
M73 Q0 S392
G1 X44.556 Y119.139 E.66966
G1 X44.137 Y119.139 E.01314
M73 P0 R389
G1 X44.137 Y97.782 E.66966
G1 X43.718 Y97.782 E.01314
G1 X43.718 Y119.139 E.66966
G1 X43.299 Y119.139 E.01314
G1 X43.299 Y97.782 E.66966
G1 X42.881 Y97.782 E.01314
G1 X42.881 Y119.139 E.66966
G1 X42.462 Y119.139 E.01314
G1 X42.462 Y97.782 E.66966
G1 X42.043 Y97.782 E.01314
G1 X42.043 Y119.309 E.67498
;WIPE_START
G1 F8640
G1 X42.043 Y113.549 E-1.33
;WIPE_END
G1 E-.07 F2100
G1 Z.4 F10800
G1 X134.865 Y55.815
G1 Z.2
G1 E1.4 F2100
G1 F1200
G1 X115.135 Y55.815 E.6186
G1 X115.135 Y44.38 E.35855
G1 X134.865 Y44.38 E.6186
G1 X134.865 Y55.758 E.35678
G1 X134.217 Y55.645 F10800
G1 F1200
G1 X134.217 Y44.719 E.34259
G1 X133.799 Y44.719 E.01314
G1 X133.799 Y55.476 E.33727
G1 X133.38 Y55.476 E.01314
G1 X133.38 Y44.719 E.33727
G1 X132.961 Y44.719 E.01314
G1 X132.961 Y55.476 E.33727
G1 X132.542 Y55.476 E.01314
G1 X132.542 Y44.719 E.33727
G1 X132.123 Y44.719 E.01314
G1 X132.123 Y55.476 E.33727
G1 X131.704 Y55.476 E.01314
G1 X131.704 Y44.719 E.33727
G1 X131.285 Y44.719 E.01314
G1 X131.285 Y55.476 E.33727
G1 X130.866 Y55.476 E.01314
G1 X130.866 Y44.719 E.33727
G1 X130.447 Y44.719 E.01314
G1 X130.447 Y55.476 E.33727
G1 X130.028 Y55.476 E.01314
G1 X130.028 Y44.719 E.33727
G1 X129.609 Y44.719 E.01314
G1 X129.609 Y55.476 E.33727
G1 X129.19 Y55.476 E.01314
G1 X129.19 Y44.719 E.33727
G1 X128.771 Y44.719 E.01314
G1 X128.771 Y55.476 E.33727
G1 X128.352 Y55.476 E.01314
G1 X128.352 Y44.719 E.33727
G1 X127.933 Y44.719 E.01314
G1 X127.933 Y55.476 E.33727
G1 X127.514 Y55.476 E.01314
G1 X127.514 Y44.719 E.33727
G1 X127.095 Y44.719 E.01314
G1 X127.095 Y55.476 E.33727
G1 X126.676 Y55.476 E.01314
G1 X126.676 Y44.719 E.33727
G1 X126.257 Y44.719 E.01314
G1 X126.257 Y55.476 E.33727
G1 X125.838 Y55.476 E.01314
G1 X125.838 Y44.719 E.33727
G1 X125.419 Y44.719 E.01314
G1 X125.419 Y55.476 E.33727
G1 X125 Y55.476 E.01314
G1 X125 Y44.719 E.33727
G1 X124.581 Y44.719 E.01314
G1 X124.581 Y55.476 E.33727
G1 X124.162 Y55.476 E.01314
G1 X124.162 Y44.719 E.33727
G1 X123.743 Y44.719 E.01314
G1 X123.743 Y55.476 E.33727
G1 X123.324 Y55.476 E.01314
G1 X123.324 Y44.719 E.33727
G1 X122.905 Y44.719 E.01314
G1 X122.905 Y55.476 E.33727
G1 X122.486 Y55.476 E.01314
G1 X122.486 Y44.719 E.33727
G1 X122.067 Y44.719 E.01314
G1 X122.067 Y55.476 E.33727
G1 X121.648 Y55.476 E.01314
G1 X121.648 Y44.719 E.33727
G1 X121.229 Y44.719 E.01314
G1 X121.229 Y55.476 E.33727
G1 X120.81 Y55.476 E.01314
G1 X120.81 Y44.719 E.33727
G1 X120.391 Y44.719 E.01314
G1 X120.391 Y55.476 E.33727
G1 X119.972 Y55.476 E.01314
G1 X119.972 Y44.719 E.33727
G1 X119.553 Y44.719 E.01314
G1 X119.553 Y55.476 E.33727
G1 X119.134 Y55.476 E.01314
G1 X119.134 Y44.719 E.33727
G1 X118.715 Y44.719 E.01314
G1 X118.715 Y55.476 E.33727
G1 X118.296 Y55.476 E.01314
G1 X118.296 Y44.719 E.33727
G1 X117.877 Y44.719 E.01314
G1 X117.877 Y55.476 E.33727
G1 X117.458 Y55.476 E.01314
G1 X117.458 Y44.719 E.33727
G1 X117.039 Y44.719 E.01314
G1 X117.039 Y55.476 E.33727
G1 X116.62 Y55.476 E.01314
G1 X116.62 Y44.719 E.33727
G1 X116.201 Y44.719 E.01314
G1 X116.201 Y55.476 E.33727
G1 X115.783 Y55.476 E.01314
G1 X115.783 Y44.549 E.34259
;WIPE_START
G1 F8640
G1 X115.783 Y50.309 E-1.33
;WIPE_END
G1 E-.07 F2100
G1 Z.4 F10800
G1 X208.691 Y119.479
G1 Z.2
G1 E1.4 F2100
G1 F1200
G1 X196.142 Y119.479 E.39347
G1 X196.142 Y97.442 E.69094
G1 X208.691 Y97.442 E.39347
G1 X208.691 Y119.422 E.68916
G1 X207.957 Y119.309 F10800
G1 F1200
G1 X207.957 Y97.782 E.67498
G1 X207.538 Y97.782 E.01314
G1 X207.538 Y119.139 E.66966
G1 X207.119 Y119.139 E.01314
G1 X207.119 Y97.782 E.66966
G1 X206.701 Y97.782 E.01314
G1 X206.701 Y119.139 E.66966
G1 X206.282 Y119.139 E.01314
G1 X206.282 Y97.782 E.66966
G1 X205.863 Y97.782 E.01314
G1 X205.863 Y119.139 E.66966
G1 X205.444 Y119.139 E.01314
G1 X205.444 Y97.782 E.66966
G1 X205.025 Y97.782 E.01314
G1 X205.025 Y119.139 E.66966
G1 X204.606 Y119.139 E.01314
G1 X204.606 Y97.782 E.66966
G1 X204.187 Y97.782 E.01314
G1 X204.187 Y119.139 E.66966
G1 X203.768 Y119.139 E.01314
G1 X203.768 Y97.782 E.66966
G1 X203.349 Y97.782 E.01314
G1 X203.349 Y119.139 E.66966
G1 X202.93 Y119.139 E.01314
G1 X202.93 Y97.782 E.66966
G1 X202.511 Y97.782 E.01314
G1 X202.511 Y119.139 E.66966
G1 X202.092 Y119.139 E.01314
G1 X202.092 Y97.782 E.66966
G1 X201.673 Y97.782 E.01314
G1 X201.673 Y119.139 E.66966
G1 X201.254 Y119.139 E.01314
M73 Q0 S391
G1 X201.254 Y97.782 E.66966
G1 X200.835 Y97.782 E.01314
M73 P0 R388
G1 X200.835 Y119.139 E.66966
G1 X200.416 Y119.139 E.01314
G1 X200.416 Y97.782 E.66966
G1 X199.997 Y97.782 E.01314
G1 X199.997 Y119.139 E.66966
G1 X199.578 Y119.139 E.01314
G1 X199.578 Y97.782 E.66966
G1 X199.159 Y97.782 E.01314
G1 X199.159 Y119.139 E.66966
G1 X198.74 Y119.139 E.01314
G1 X198.74 Y97.782 E.66966
G1 X198.321 Y97.782 E.01314
G1 X198.321 Y119.139 E.66966
G1 X197.902 Y119.139 E.01314
G1 X197.902 Y97.782 E.66966
G1 X197.483 Y97.782 E.01314
G1 X197.483 Y119.139 E.66966
G1 X197.064 Y119.139 E.01314
G1 X197.064 Y97.782 E.66966
G1 X196.645 Y97.782 E.01314
G1 X196.645 Y119.309 E.67498
;WIPE_START
G1 F8640
G1 X196.645 Y113.549 E-1.33
;WIPE_END
G1 E-.07 F2100
G1 Z.4 F10800
G1 X140.877 Y64.74
G1 Z.2
G1 E1.4 F2100
;TYPE:Perimeter
G1 F1200
G1 X140.902 Y64.537 E.00641
G1 X140.994 Y64.664 E.00492
G1 X140.928 Y64.707 E.00246
;WIPE_START
G1 F8640
G1 X140.902 Y64.537 E-.03977
G1 X140.994 Y64.664 E-.03623
G1 X140.928 Y64.707 E-.01815
;WIPE_END
G1 E-1.30586 F2100
G1 Z.4 F10800
G1 X153.362 Y64.438
G1 Z.2
G1 E1.4 F2100
G1 F1200
G1 X153.517 Y64.655 E.00837
G1 X153.335 Y64.768 E.00672
G1 X153.36 Y64.498 E.00851
;WIPE_START
G1 F8640
G1 X153.517 Y64.655 E-.05143
G1 X153.335 Y64.768 E-.0495
G1 X153.36 Y64.498 E-.06264
;WIPE_END
G1 E-1.23642 F2100
G1 Z.4 F10800
G1 X176.298 Y64.62
G1 Z.2
G1 E1.4 F2100
G1 F1200
G1 X176.387 Y65.025 E.01301
G1 X176.55 Y65.53 E.01663
G1 X176.793 Y66.144 E.02069
G1 X176.671 Y65.936 E.00757
G1 X176.017 Y65.053 E.03443
G1 X176.192 Y64.817 E.00921
G1 X176.27 Y64.673 E.00513
;WIPE_START
G1 F8640
G1 X176.387 Y65.025 E-.08576
G1 X176.55 Y65.53 E-.12249
G1 X176.793 Y66.144 E-.15237
G1 X176.671 Y65.936 E-.05578
G1 X176.017 Y65.053 E-.25357
G1 X176.192 Y64.817 E-.06784
G1 X176.27 Y64.673 E-.0378
;WIPE_END
G1 E-.62439 F2100
G1 Z.4 F10800
G1 X185.659 Y64.794
G1 Z.2
G1 E1.4 F2100
G1 F1200
G1 X186.217 Y64.83 E.01752
G1 X186.155 Y64.884 E.00257
G1 X185.802 Y65.352 E.01839
G1 X185.755 Y65.45 E.00341
G1 X185.034 Y65.278 E.02325
G1 X184.771 Y65.409 E.00922
G1 X184.324 Y65.464 E.01412
G1 X184.305 Y65.162 E.00948
G1 X184.321 Y65.046 E.00365
G1 X184.551 Y65.058 E.00724
G1 X184.814 Y65.124 E.00849
G1 X185.573 Y65.075 E.02386
G1 X185.641 Y64.851 E.00733
;WIPE_START
G1 F8640
G1 X186.217 Y64.83 E-.13291
G1 X186.155 Y64.884 E-.01895
G1 X185.802 Y65.352 E-.13541
G1 X185.755 Y65.45 E-.02511
G1 X185.034 Y65.278 E-.17119
G1 X184.771 Y65.409 E-.06789
G1 X184.324 Y65.464 E-.10399
G1 X184.305 Y65.162 E-.06984
G1 X184.321 Y65.046 E-.02688
G1 X184.551 Y65.058 E-.05333
G1 X184.814 Y65.124 E-.06253
G1 X185.573 Y65.075 E-.17568
G1 X185.641 Y64.851 E-.05395
;WIPE_END
G1 E-.30234 F2100
G1 Z.4 F10800
G1 X164.497 Y62.976
G1 Z.2
G1 E1.4 F2100
G1 F1200
G1 X165.67 Y62.737 E.03751
G1 X166.067 Y62.698 E.01251
G1 X167.014 Y62.681 E.0297
G1 X167.295 Y63.591 E.02985
G1 X167.576 Y62.678 E.02996
G1 X168.536 Y62.705 E.03009
G1 X168.978 Y62.766 E.014
G1 X169.717 Y63.05 E.02482
G1 X169.772 Y62.996 E.00242
G1 X170.216 Y62.796 E.01525
G1 X170.578 Y62.715 E.01165
G1 X170.843 Y62.69 E.00834
G1 X171.41 Y62.73 E.01783
G1 X171.802 Y62.839 E.01274
G1 X172.242 Y63.055 E.01536
G1 X172.191 Y62.633 E.01332
G1 X172.151 Y61.313 E.04141
G1 X174.738 Y61.307 E.08113
G1 X174.688 Y63.089 E.05591
G1 X174.963 Y62.717 E.01451
G1 X175.74 Y62.703 E.02438
G1 X176.215 Y62.764 E.01502
G1 X176.505 Y62.867 E.00963
G1 X176.782 Y62.765 E.00927
G1 X177.238 Y62.702 E.01444
G1 X178.219 Y62.681 E.03076
G1 X178.458 Y63.494 E.02656
G1 X178.683 Y62.69 E.02618
G1 X181.461 Y62.683 E.08708
G1 X180.451 Y65.388 E.09055
G1 X180.543 Y65.327 E.00346
G1 X180.778 Y65.234 E.00795
G1 X181.095 Y65.193 E.01002
G1 X181.54 Y65.236 E.014
G1 X181.764 Y65.349 E.00788
G1 X181.751 Y64.955 E.01235
G1 X181.806 Y64.504 E.01426
G1 X181.949 Y64.057 E.0147
G1 X182.163 Y63.671 E.01383
G1 X182.463 Y63.323 E.01442
G1 X182.801 Y63.062 E.01339
G1 X183.184 Y62.87 E.01344
G1 X183.67 Y62.734 E.01582
G1 X184.104 Y62.691 E.01368
G1 X184.519 Y62.712 E.01303
G1 X184.868 Y62.79 E.01123
G1 X185.217 Y62.923 E.01169
G1 X185.354 Y63.029 E.00546
G1 X186.259 Y62.76 E.02958
G1 X186.788 Y62.694 E.01673
G1 X189.409 Y62.683 E.08218
G1 X189.409 Y64.377 E.05311
G1 X188.664 Y65.332 E.03798
G1 X188.41 Y65.59 E.01135
G1 X189.417 Y65.47 E.03181
G1 X189.483 Y67.839 E.07432
G1 X186.746 Y67.826 E.08583
G1 X186.192 Y67.761 E.01747
G1 X185.268 Y67.501 E.03011
G1 X185.184 Y67.577 E.00355
G1 X184.848 Y67.714 E.01138
G1 X184.463 Y67.803 E.01238
G1 X184.035 Y67.83 E.01346
G1 X183.559 Y67.782 E.01498
G1 X183.092 Y67.641 E.0153
G1 X182.718 Y67.426 E.01353
G1 X182.37 Y67.089 E.01519
G1 X182.289 Y67.303 E.00717
G1 X182.069 Y67.529 E.0099
G1 X181.855 Y67.677 E.00814
G1 X181.455 Y67.819 E.0133
G1 X181.154 Y67.832 E.00947
G1 X180.871 Y67.797 E.00892
G1 X180.636 Y67.722 E.00775
G1 X180.418 Y67.602 E.00781
G1 X180.219 Y67.431 E.00822
G1 X180.037 Y67.188 E.00951
G1 X179.913 Y66.829 E.0119
G1 X179.532 Y67.848 E.03409
G1 X179.388 Y68.177 E.01128
G1 X179.257 Y68.407 E.00831
G1 X179.044 Y68.698 E.0113
G1 X178.756 Y68.98 E.01264
G1 X178.397 Y69.221 E.01355
G1 X178.056 Y69.369 E.01166
G1 X177.705 Y69.457 E.01135
G1 X177.291 Y69.491 E.01302
G1 X176.852 Y69.454 E.01383
G1 X175.974 Y69.276 E.02809
G1 X176.067 Y68.157 E.03519
G1 X176.177 Y67.745 E.01339
G1 X175.84 Y67.806 E.01076
G1 X174.987 Y67.836 E.02674
G1 X174.717 Y67.412 E.01575
G1 X174.769 Y67.785 E.0118
G1 X173.427 Y67.809 E.04208
G1 X172.164 Y67.711 E.03972
G1 X172.209 Y67.375 E.01061
G1 X171.85 Y67.603 E.01332
G1 X171.445 Y67.751 E.01352
G1 X170.908 Y67.83 E.01702
G1 X170.364 Y67.832 E.01707
G1 X169.885 Y67.784 E.01508
G1 X169.478 Y67.688 E.01313
G1 X168.625 Y67.362 E.02861
G1 X168.65 Y67.024 E.01063
G1 X168.343 Y67.837 E.02725
G1 X166.246 Y67.837 E.06576
G1 X165.669 Y66.3 E.05147
G1 X165.601 Y66.514 E.00703
G1 X165.365 Y66.909 E.01446
G1 X165.02 Y67.275 E.01576
G1 X164.65 Y67.528 E.01405
G1 X164.242 Y67.703 E.0139
G1 X163.807 Y67.804 E.01402
G1 X163.314 Y67.839 E.0155
G1 X162.772 Y67.79 E.01704
G1 X162.31 Y67.656 E.01509
G1 X161.899 Y67.444 E.01451
G1 X161.57 Y67.144 E.01396
G1 X161.416 Y66.949 E.00781
G1 X161.352 Y66.811 E.00474
G1 X161.316 Y66.906 E.00317
G1 X161.098 Y67.232 E.01231
G1 X160.772 Y67.524 E.0137
G1 X160.52 Y67.66 E.00899
G1 X160.21 Y67.771 E.01032
G1 X159.879 Y67.828 E.01051
G1 X159.53 Y67.836 E.01097
G1 X159.215 Y67.8 E.00994
G1 X158.996 Y67.738 E.00712
G1 X158.953 Y67.85 E.00375
G1 X157.995 Y67.805 E.03009
G1 X157.152 Y67.698 E.02664
G1 X156.365 Y67.804 E.02488
G1 X155.429 Y67.847 E.02939
G1 X155.379 Y67.71 E.00457
G1 X155.247 Y67.762 E.00445
G1 X154.73 Y67.835 E.01638
G1 X154.218 Y67.814 E.01607
G1 X153.82 Y67.711 E.01288
G1 X153.459 Y67.511 E.01297
G1 X153.347 Y67.409 E.00473
G1 X153.384 Y67.724 E.00993
G1 X152.124 Y67.815 E.03961
G1 X150.793 Y67.812 E.04174
G1 X150.913 Y66.461 E.04255
G1 X150.958 Y66.268 E.0062
G1 X150.644 Y66.365 E.01031
G1 X150.093 Y66.423 E.01737
G1 X149.542 Y66.365 E.01737
G1 X149.145 Y66.243 E.01304
G1 X149.203 Y66.51 E.00857
G1 X149.288 Y67.825 E.04134
G1 X146.905 Y67.839 E.0747
G1 X146.905 Y67.854 E.00047
G1 X145.592 Y67.805 E.04122
G1 X144.588 Y67.703 E.03164
G1 X143.836 Y67.804 E.02379
G1 X142.9 Y67.847 E.02938
G1 X142.85 Y67.71 E.00457
G1 X142.718 Y67.762 E.00445
G1 X142.199 Y67.835 E.01643
G1 X141.677 Y67.811 E.0164
G1 X141.283 Y67.693 E.01288
G1 X140.901 Y67.472 E.01383
G1 X140.931 Y67.673 E.00638
G1 X139.704 Y67.806 E.03871
G1 X138.387 Y67.854 E.04131
G1 X138.387 Y67.837 E.00054
G1 X136.448 Y67.843 E.06081
G1 X133.868 Y67.816 E.0809
G1 X133.91 Y67.109 E.0222
G1 X133.592 Y67.404 E.01362
G1 X133.097 Y67.666 E.01754
G1 X132.559 Y67.804 E.01742
G1 X132.066 Y67.839 E.01551
G1 X131.633 Y67.809 E.0136
G1 X131.174 Y67.701 E.01477
G1 X130.761 Y67.522 E.01413
G1 X130.325 Y67.211 E.01679
G1 X130.018 Y66.865 E.01449
G1 X129.787 Y66.462 E.01456
G1 X129.639 Y66.007 E.01501
G1 X129.602 Y65.514 E.01549
G1 X129.662 Y65.101 E.01309
G1 X129.699 Y65.01 E.00308
G1 X129.383 Y65.139 E.0107
